!!!OTL: Oczarowałaś moje serce
**kern	**dynam	**kern	**dynam	**kern	**dynam	**kern	**dynam	**kern	**dynam	**kern	**kern	**text	**kern	**text	**kern	**kern	**dynam	**kern	**dynam	**kern	**dynam	**kern	**dynam	**kern	**dynam
*part13	*part13	*part12	*part12	*part11	*part11	*part10	*part10	*part9	*part9	*part8	*part7	*part7	*part6	*part6	*part5	*part5	*part5	*part4	*part4	*part3	*part3	*part2	*part2	*part1	*part1
*staff14	*	*staff13	*	*staff12	*	*staff11	*	*staff10	*	*staff9	*staff8	*staff8	*staff7	*staff7	*staff6	*staff5	*	*staff4	*	*staff3	*	*staff2	*	*staff1	*
*I"Contrabbasso	*	*I"Violoncelli	*	*I"Viole	*	*I"Violini 2	*	*I"Violini 1	*	*I"Tenore Basso	*I"Soprano Alto	*	*I"Voce	*	*I"Arpa	*	*	*I"Fagotto	*	*I"Clarinetto in B♭	*	*I"Oboe	*	*I"Flauto	*
*I'C-b.	*	*I'V-c.	*	*I'V-le	*	*I'V-ni 2	*	*I'V-ni 1	*	*I'T B	*I'S A	*	*I'V.	*	*I'Ar.	*	*	*I'Fag.	*	*I'Cl. in B♭	*	*I'Ob.	*	*I'Fl.	*
*clefF4	*	*clefF4	*	*clefC3	*	*clefG2	*	*clefG2	*	*clefF4	*clefG2	*	*clefGv2	*	*clefF4	*clefG2	*	*clefF4	*	*clefG2	*	*clefG2	*	*clefG2	*
*ITrd0c0	*	*	*	*	*	*	*	*	*	*	*	*	*	*	*	*	*	*	*	*ITrd1c2	*	*	*	*	*
*k[b-]	*	*k[b-]	*	*k[b-]	*	*k[b-]	*	*k[b-]	*	*k[b-]	*k[b-]	*	*k[b-]	*	*k[b-]	*k[b-]	*	*k[b-]	*	*k[b-]	*	*k[b-]	*	*k[b-]	*
*M4/4	*	*M4/4	*	*M4/4	*	*M4/4	*	*M4/4	*	*M4/4	*M4/4	*	*M4/4	*	*M4/4	*M4/4	*	*M4/4	*	*M4/4	*	*M4/4	*	*M4/4	*
*MM65	*MM65	*	*MM65	*	*MM65	*	*MM65	*	*MM65	*	*MM65	*MM65	*	*MM65	*	*MM65	*	*MM65	*	*MM65	*	*MM65	*	*MM65	*
=1	=1	=1	=1	=1	=1	=1	=1	=1	=1	=1	=1	=1	=1	=1	=1	=1	=1	=1	=1	=1	=1	=1	=1	=1	=1
!	!	!	!	!	!	!	!	!	!	!	!	!	!	!	!	!	!	!	!	!	!	!	!	!LO:TX:a:t=[quarter]=65	!
2r	.	8r	.	2r	.	2r	.	2r	.	2r	2r	.	2r	.	2r	2r	.	2r	.	2r	.	2r	.	2r	.
.	.	(8CL	f	.	.	.	.	.	.	.	.	.	.	.	.	.	.	.	.	.	.	.	.	.	.
.	.	8F	.	.	.	.	.	.	.	.	.	.	.	.	.	.	.	.	.	.	.	.	.	.	.
.	.	8GJ)	.	.	.	.	.	.	.	.	.	.	.	.	.	.	.	.	.	.	.	.	.	.	.
=2	=2	=2	=2	=2	=2	=2	=2	=2	=2	=2	=2	=2	=2	=2	=2	=2	=2	=2	=2	=2	=2	=2	=2	=2	=2
1r	.	(4G	.	2c	mp	2f	mp	1r	.	1r	1r	.	1r	.	4F: 4c:	4f: 4a: 4cc: 4ff:	f f	1r	.	1r	.	1r	.	1r	.
.	.	4.A)	.	.	.	.	.	.	.	.	.	.	.	.	2r	16r	.	.	.	.	.	.	.	.	.
.	.	.	.	.	.	.	.	.	.	.	.	.	.	.	.	16fffLL	.	.	.	.	.	.	.	.	.
.	.	.	.	.	.	.	.	.	.	.	.	.	.	.	.	16ccc	.	.	.	.	.	.	.	.	.
.	.	.	.	.	.	.	.	.	.	.	.	.	.	.	.	16aaJJ	.	.	.	.	.	.	.	.	.
.	.	.	.	2f	.	2a	.	.	.	.	.	.	.	.	.	16ffLL	.	.	.	.	.	.	.	.	.
.	.	.	.	.	.	.	.	.	.	.	.	.	.	.	.	16cc	.	.	.	.	.	.	.	.	.
.	.	(8cL	.	.	.	.	.	.	.	.	.	.	.	.	.	16a	.	.	.	.	.	.	.	.	.
.	.	.	.	.	.	.	.	.	.	.	.	.	.	.	.	16fJJ	.	.	.	.	.	.	.	.	.
.	.	8B-	.	.	.	.	.	.	.	.	.	.	.	.	16r	16c	.	.	.	.	.	.	.	.	.
.	.	.	.	.	.	.	.	.	.	.	.	.	.	.	16ALL	8.r	.	.	.	.	.	.	.	.	.
.	.	8AJ)	.	.	.	.	.	.	.	.	.	.	.	.	16F	.	.	.	.	.	.	.	.	.	.
.	.	.	.	.	.	.	.	.	.	.	.	.	.	.	16DJJ	.	.	.	.	.	.	.	.	.	.
=3	=3	=3	=3	=3	=3	=3	=3	=3	=3	=3	=3	=3	=3	=3	=3	=3	=3	=3	=3	=3	=3	=3	=3	=3	=3
1r	.	(4F	.	1c	.	4f	.	1r	.	1r	1r	.	1r	.	4C: 4G: 4c:	4f: 4g: 4cc: 4gg:	.	1r	.	1r	.	1r	.	1r	.
.	.	4.G)	.	.	.	2.e	.	.	.	.	.	.	.	.	4r	4c: 4e: 4g: 4cc: 4gg:	.	.	.	.	.	.	.	.	.
.	.	.	.	.	.	.	.	.	.	.	.	.	.	.	2r	2r	.	.	.	.	.	.	.	.	.
.	.	(8CL	.	.	.	.	.	.	.	.	.	.	.	.	.	.	.	.	.	.	.	.	.	.	.
.	.	8G	.	.	.	.	.	.	.	.	.	.	.	.	.	.	.	.	.	.	.	.	.	.	.
.	.	8AJ)	.	.	.	.	.	.	.	.	.	.	.	.	.	.	.	.	.	.	.	.	.	.	.
=4	=4	=4	=4	=4	=4	=4	=4	=4	=4	=4	=4	=4	=4	=4	=4	=4	=4	=4	=4	=4	=4	=4	=4	=4	=4
1r	.	(4A	.	2d	.	2g	.	1r	.	1r	1r	.	1r	.	4G: 4d:	4g: 4b-: 4dd: 4gg:	.	1r	.	1r	.	1r	.	1r	.
.	.	4.B-)	.	.	.	.	.	.	.	.	.	.	.	.	2r	16r	.	.	.	.	.	.	.	.	.
.	.	.	.	.	.	.	.	.	.	.	.	.	.	.	.	16gggLL	.	.	.	.	.	.	.	.	.
.	.	.	.	.	.	.	.	.	.	.	.	.	.	.	.	16ddd	.	.	.	.	.	.	.	.	.
.	.	.	.	.	.	.	.	.	.	.	.	.	.	.	.	16bb-JJ	.	.	.	.	.	.	.	.	.
.	.	.	.	2g	.	2b-	.	.	.	.	.	.	.	.	.	16ggLL	.	.	.	.	.	.	.	.	.
.	.	.	.	.	.	.	.	.	.	.	.	.	.	.	.	16dd	.	.	.	.	.	.	.	.	.
.	.	(8cL	.	.	.	.	.	.	.	.	.	.	.	.	.	16b-	.	.	.	.	.	.	.	.	.
.	.	.	.	.	.	.	.	.	.	.	.	.	.	.	.	16gJJ	.	.	.	.	.	.	.	.	.
.	.	8F	.	.	.	.	.	.	.	.	.	.	.	.	16r	16d	.	.	.	.	.	.	.	.	.
.	.	.	.	.	.	.	.	.	.	.	.	.	.	.	16B-LL	16r	.	.	.	.	.	.	.	.	.
.	.	8GJ)	.	.	.	.	.	.	.	.	.	.	.	.	16G	8r	.	.	.	.	.	.	.	.	.
.	.	.	.	.	.	.	.	.	.	.	.	.	.	.	16EJJ	.	.	.	.	.	.	.	.	.	.
=5	=5	=5	=5	=5	=5	=5	=5	=5	=5	=5	=5	=5	=5	=5	=5	=5	=5	=5	=5	=5	=5	=5	=5	=5	=5
1r	.	(4G	.	1d	.	4g	.	1r	.	1r	1r	.	1r	.	4D: 4A:	4d: 4g: 4a: 4dd: 4aa:	.	1r	.	1r	.	1r	.	1r	.
.	.	4.A)	.	.	.	2.f	.	.	.	.	.	.	.	.	2r	4d: 4f: 4a: 4dd: 4aa:	.	.	.	.	.	.	.	.	.
.	.	.	.	.	.	.	.	.	.	.	.	.	.	.	.	2r	.	.	.	.	.	.	.	.	.
.	.	(8AL	.	.	.	.	.	.	.	.	.	.	.	.	.	.	.	.	.	.	.	.	.	.	.
.	.	8B-	.	.	.	.	.	.	.	.	.	.	.	.	8r	.	.	.	.	.	.	.	.	.	.
.	.	8cJ)	.	.	.	.	.	.	.	.	.	.	.	.	8AA	.	.	.	.	.	.	.	.	.	.
=6	=6	=6	=6	=6	=6	=6	=6	=6	=6	=6	=6	=6	=6	=6	=6	=6	=6	=6	=6	=6	=6	=6	=6	=6	=6
*M3/4	*	*M3/4	*	*M3/4	*	*M3/4	*	*M3/4	*	*M3/4	*M3/4	*	*M3/4	*	*M3/4	*M3/4	*	*M3/4	*	*M3/4	*	*M3/4	*	*M3/4	*
*	*	*	*	*	*	*	*	*	*	*	*	*	*	*	*^	*	*	*	*	*	*	*	*	*	*
2.r	.	(4d	.	8f'	.	8b-'	.	2.r	.	2.r	2.r	.	2.r	.	2BB-	8r	2r	.	2.r	.	2.r	.	2.r	.	2.r	.
.	.	.	.	8r	.	8r	.	.	.	.	.	.	.	.	.	8FL	.	.	.	.	.	.	.	.	.	.
.	.	4.F)	.	8c'	.	8b-'	.	.	.	.	.	.	.	.	.	8B-	.	.	.	.	.	.	.	.	.	.
.	.	.	.	4r	.	4r	.	.	.	.	.	.	.	.	.	8dJ	.	.	.	.	.	.	.	.	.	.
.	.	.	.	.	.	.	.	.	.	.	.	.	.	.	4r	4r	8fL	.	.	.	.	.	.	.	.	.
.	.	(16ALL	.	8f'	.	8b-'	.	.	.	.	.	.	.	.	.	.	8b-J	.	.	.	.	.	.	.	.	.
.	.	16B-JJ	.	.	.	.	.	.	.	.	.	.	.	.	.	.	.	.	.	.	.	.	.	.	.	.
=7	=7	=7	=7	=7	=7	=7	=7	=7	=7	=7	=7	=7	=7	=7	=7	=7	=7	=7	=7	=7	=7	=7	=7	=7	=7	=7
2.r	.	4c	.	8f'	.	8a'	.	2.r	.	2.r	2.r	.	2.r	.	2AA	8r	4.r	.	2.r	.	2.r	.	2.r	.	2.r	.
.	.	.	.	8r	.	8r	.	.	.	.	.	.	.	.	.	8FL	.	.	.	.	.	.	.	.	.	.
.	.	4F)	.	8B-'	.	8a'	.	.	.	.	.	.	.	.	.	8cJ	.	.	.	.	.	.	.	.	.	.
.	.	.	.	4r	.	4r	.	.	.	.	.	.	.	.	.	8r	8f	.	.	.	.	.	.	.	.	.
.	.	(8GL	.	.	.	.	.	.	.	.	.	.	.	.	4r	4r	8aL	.	.	.	.	.	.	.	.	.
.	.	8AJ)	.	8f'	.	8a'	.	.	.	.	.	.	.	.	.	.	8ccJ	.	.	.	.	.	.	.	.	.
=8	=8	=8	=8	=8	=8	=8	=8	=8	=8	=8	=8	=8	=8	=8	=8	=8	=8	=8	=8	=8	=8	=8	=8	=8	=8	=8
2.r	.	(4.B-	.	2.d	.	2.g	.	2.r	.	2.r	2.r	.	2.r	.	2GG	8r	2r	.	2.r	.	2.r	.	2.r	.	2.r	.
.	.	.	.	.	.	.	.	.	.	.	.	.	.	.	.	8D	.	.	.	.	.	.	.	.	.	.
.	.	.	.	.	.	.	.	.	.	.	.	.	.	.	.	8GL	.	.	.	.	.	.	.	.	.	.
.	.	8A	.	.	.	.	.	.	.	.	.	.	.	.	.	8B-J	.	.	.	.	.	.	.	.	.	.
.	.	8GL	.	.	.	.	.	.	.	.	.	.	.	.	4r	4r	8dL	.	.	.	.	.	.	.	.	.
.	.	8FJ)	.	.	.	.	.	.	.	.	.	.	.	.	.	.	8gJ	.	.	.	.	.	.	.	.	.
*	*	*	*	*	*	*	*	*	*	*	*	*	*	*	*v	*v	*	*	*	*	*	*	*	*	*	*
=9	=9	=9	=9	=9	=9	=9	=9	=9	=9	=9	=9	=9	=9	=9	=9	=9	=9	=9	=9	=9	=9	=9	=9	=9	=9
*M4/4	*	*M4/4	*	*M4/4	*	*M4/4	*	*M4/4	*	*M4/4	*M4/4	*	*M4/4	*	*M4/4	*M4/4	*	*M4/4	*	*M4/4	*	*M4/4	*	*M4/4	*
2.r	.	(2D	.	8FL	<	8r	.	16B-LL	mp	1r	1r	.	1r	.	4BB-: 4F: 4B-:	8d:L 8f: 8b-:	.	1r	.	1r	.	2r	.	2r	.
.	.	.	.	.	.	.	.	16c	<	.	.	.	.	.	.	.	.	.	.	.	.	.	.	.	.
.	.	.	.	8GJ	.	16B-LL	.	16d	.	.	.	.	.	.	.	16ffL	.	.	.	.	.	.	.	.	.
.	.	.	.	.	.	16cJJ	<	16eJJ	.	.	.	.	.	.	.	16eeJJ	.	.	.	.	.	.	.	.	.
.	.	.	.	16B-LL	.	16dLL	.	16fLL	.	.	.	.	.	.	4r	16ddLL	.	.	.	.	.	.	.	.	.
.	.	.	.	16A	.	16e	.	16g	.	.	.	.	.	.	.	16cc	.	.	.	.	.	.	.	.	.
.	.	.	.	16G	.	16f	.	16a	.	.	.	.	.	.	.	16b-	.	.	.	.	.	.	.	.	.
.	.	.	.	16FJJ	.	16dJJ	.	16fJJ	.	.	.	.	.	.	.	16aJJ	.	.	.	.	.	.	.	.	.
.	.	2C)	.	4E	.	4c	.	4g	.	.	.	.	.	.	4C: 4G: 4c:	4e: 4g: 4cc:	.	.	.	.	.	8r	.	8r	.
.	.	.	.	.	.	.	.	.	.	.	.	.	.	.	.	.	.	.	.	.	.	8gL	f	8ccL	f
16r	.	.	.	4G	[[	4e	[[	4cc	[[	.	.	.	.	.	4r	4r	.	.	.	.	.	8a	.	8ff	.
!LO:TX:a:t=pizz.	!	!	!	!	!	!	!	!	!	!	!	!	!	!	!	!	!	!	!	!	!	!	!	!	!
16CLL	f	.	.	.	.	.	.	.	.	.	.	.	.	.	.	.	.	.	.	.	.	.	.	.	.
16E	.	.	.	.	.	.	.	.	.	.	.	.	.	.	.	.	.	.	.	.	.	[8b-J	.	8ggJ	.
16GJJ	.	.	.	.	.	.	.	.	.	.	.	.	.	.	.	.	.	.	.	.	.	.	.	.	.
=10	=10	=10	=10	=10	=10	=10	=10	=10	=10	=10	=10	=10	=10	=10	=10	=10	=10	=10	=10	=10	=10	=10	=10	=10	=10
4F	.	1F	f	(2A	f	(2f	f	(2cc	f	1r	1r	.	1r	.	2.r	1r	.	1r	.	1r	.	4b-]	.	4gg	.
8r	.	.	.	.	.	.	.	.	.	.	.	.	.	.	.	.	.	.	.	.	.	4.cc	.	4.aa	.
8C	.	.	.	.	.	.	.	.	.	.	.	.	.	.	.	.	.	.	.	.	.	.	.	.	.
4F	.	.	.	8AL)	.	8fL)	.	8ccL)	.	.	.	.	.	.	.	.	.	.	.	.	.	.	.	.	.
.	.	.	.	8c	.	8f	.	8a	.	.	.	.	.	.	.	.	.	.	.	.	.	8aL	.	8cccL	.
8r	.	.	.	8B-	.	8g	.	8b-	.	.	.	.	.	.	4c	.	.	.	.	.	.	8b-	.	8bb-	.
16FFLL	.	.	.	8AJ	.	8aJ	.	8ccJ	.	.	.	.	.	.	.	.	.	.	.	.	.	8ccJ	.	8aaJ	.
16AAJJ	.	.	.	.	.	.	.	.	.	.	.	.	.	.	.	.	.	.	.	.	.	.	.	.	.
=11	=11	=11	=11	=11	=11	=11	=11	=11	=11	=11	=11	=11	=11	=11	=11	=11	=11	=11	=11	=11	=11	=11	=11	=11	=11
4C	.	4C	.	4c	.	4f	.	(2cc	.	1r	1r	.	1r	.	2C	2r	.	1r	.	1r	.	4a	.	4ff	.
8.r	.	2.c	.	(4e	.	(4g	.	.	.	.	.	.	.	.	.	.	.	.	.	.	.	4.g	.	4.gg	.
16c	.	.	.	.	.	.	.	.	.	.	.	.	.	.	.	.	.	.	.	.	.	.	.	.	.
8dL	.	.	.	8eL)	.	8gL)	.	8ccL)	.	.	.	.	.	.	2r	4ccc	.	.	.	.	.	.	.	.	.
8cJ	.	.	.	8g	.	8g	.	8ee	.	.	.	.	.	.	.	.	.	.	.	.	.	8gL	.	8ccL	.
8r	.	.	.	8f	.	8b-	.	8dd	.	.	.	.	.	.	.	4r	.	.	.	.	.	8b-	.	8gg	.
16B-LL	.	.	.	8eJ	.	8aJ	.	8ccJ	.	.	.	.	.	.	.	.	.	.	.	.	.	[8ccJ	.	8aaJ	.
16AJJ	.	.	.	.	.	.	.	.	.	.	.	.	.	.	.	.	.	.	.	.	.	.	.	.	.
=12	=12	=12	=12	=12	=12	=12	=12	=12	=12	=12	=12	=12	=12	=12	=12	=12	=12	=12	=12	=12	=12	=12	=12	=12	=12
4G	.	1G	.	(2d	.	(2b-	.	(2dd	.	1r	1r	.	1r	.	2.r	1r	.	1r	.	1r	.	4cc]	.	4aa	.
8r	.	.	.	.	.	.	.	.	.	.	.	.	.	.	.	.	.	.	.	.	.	4.dd	.	4.bb-	.
8D	.	.	.	.	.	.	.	.	.	.	.	.	.	.	.	.	.	.	.	.	.	.	.	.	.
4G	.	.	.	4d)	.	8b-L)	.	8ddL)	.	.	.	.	.	.	.	.	.	.	.	.	.	.	.	.	.
.	.	.	.	.	.	8g	.	8cc	.	.	.	.	.	.	.	.	.	.	.	.	.	8ccL	.	8cccL	.
16r	.	.	.	8cL	.	8f	.	8a	.	.	.	.	.	.	4d	.	.	.	.	.	.	8a	.	8ff	.
16GLL	.	.	.	.	.	.	.	.	.	.	.	.	.	.	.	.	.	.	.	.	.	.	.	.	.
16F	.	.	.	8dJ	.	8gJ	.	8ccJ	.	.	.	.	.	.	.	.	.	.	.	.	.	[8eJ	.	8ggJ	.
16CJJ	.	.	.	.	.	.	.	.	.	.	.	.	.	.	.	.	.	.	.	.	.	.	.	.	.
=13	=13	=13	=13	=13	=13	=13	=13	=13	=13	=13	=13	=13	=13	=13	=13	=13	=13	=13	=13	=13	=13	=13	=13	=13	=13
4D	.	4D	.	4e	.	4g	.	(2dd	.	1r	1r	.	1r	.	2D	2r	.	1r	.	1r	.	4e]	.	4gg	.
8.r	.	4.d	.	(4f	.	(4a	.	.	.	.	.	.	.	.	.	.	.	.	.	.	.	4.f	.	4.aa	.
16d	.	.	.	.	.	.	.	.	.	.	.	.	.	.	.	.	.	.	.	.	.	.	.	.	.
8eL	.	.	.	8fL)	.	8aL)	.	8ddL)	.	.	.	.	.	.	2r	4ddd	.	.	.	.	.	.	.	.	.
8dJ	.	8r	.	8d	>	8f	>	8a	>	.	.	.	.	.	.	.	.	.	.	.	.	8fL	.	8aaL	.
8r	.	8B-L	>	8c	.	8e	.	8g	.	.	.	.	.	.	.	4r	.	.	.	.	.	8g	.	8bb-	.
16cLL	.	8AJ	]]	8dJ	]]	8fJ	]]	8aJ	]]	.	.	.	.	.	.	.	.	.	.	.	.	8aJ	.	8cccJ	.
16AJJ	.	.	.	.	.	.	.	.	.	.	.	.	.	.	.	.	.	.	.	.	.	.	.	.	.
=14	=14	=14	=14	=14	=14	=14	=14	=14	=14	=14	=14	=14	=14	=14	=14	=14	=14	=14	=14	=14	=14	=14	=14	=14	=14
*M3/4	*	*M3/4	*	*M3/4	*	*M3/4	*	*M3/4	*	*M3/4	*M3/4	*	*M3/4	*	*M3/4	*M3/4	*	*M3/4	*	*M3/4	*	*M3/4	*	*M3/4	*
8B-	mf	8B-'L	mf	8d'L	mf	8f'L	mf	8b-'L	mf	2.r	2.r	.	2.r	.	2.r	2.r	.	2.r	.	2.r	.	4b-	mf	4ddd	mf
8r	.	8B-'J	.	8d'J	.	8f'J	.	8b-'J	.	.	.	.	.	.	.	.	.	.	.	.	.	.	.	.	.
8BB-	.	8B-'L	.	8d'L	.	8f'L	.	8b-'L	.	.	.	.	.	.	.	.	.	.	.	.	.	4d	.	4.ff	.
8.r	.	8B-'J	.	8d'J	.	8f'J	.	8b-'J	.	.	.	.	.	.	.	.	.	.	.	.	.	.	.	.	.
.	.	8r	.	8r	.	8r	.	8r	.	.	.	.	.	.	.	.	.	.	.	.	.	8r	.	.	.
16FLL	.	.	.	.	.	.	.	.	.	.	.	.	.	.	.	.	.	.	.	.	.	.	.	.	.
16D	.	8B-'	.	8d'	.	8f'	.	8b-'	.	.	.	.	.	.	.	.	.	.	.	.	.	8d	.	16aaLL	.
16BB-JJ	.	.	.	.	.	.	.	.	.	.	.	.	.	.	.	.	.	.	.	.	.	.	.	16bb-JJ	.
=15	=15	=15	=15	=15	=15	=15	=15	=15	=15	=15	=15	=15	=15	=15	=15	=15	=15	=15	=15	=15	=15	=15	=15	=15	=15
8AA	.	8A'L	.	8c'L	.	8f'L	.	8cc'L	.	2.r	2.r	.	2.r	.	2.r	2r	.	2.r	.	2.r	.	4c	.	4ccc	.
8r	.	8A'J	.	8c'J	.	8f'J	.	8cc'J	.	.	.	.	.	.	.	.	.	.	.	.	.	.	.	.	.
8A	.	8A'L	.	8c'L	.	8f'L	.	8cc'L	.	.	.	.	.	.	.	.	.	.	.	.	.	4a	.	4ff	.
4r	.	8A'J	.	8c'J	.	8f'J	.	8cc'J	.	.	.	.	.	.	.	.	.	.	.	.	.	.	.	.	.
.	.	8r	.	8r	.	8r	.	8r	.	.	.	.	.	.	.	16r	.	.	.	.	.	8b-L	.	8ggL	.
.	.	.	.	.	.	.	.	.	.	.	.	.	.	.	.	16fLL	.	.	.	.	.	.	.	.	.
8A	.	8A'	.	8c'	.	8f'	.	8cc'	.	.	.	.	.	.	.	16a	.	.	.	.	.	8ccJ	.	8aaJ	.
.	.	.	.	.	.	.	.	.	.	.	.	.	.	.	.	16ccJJ	.	.	.	.	.	.	.	.	.
=16	=16	=16	=16	=16	=16	=16	=16	=16	=16	=16	=16	=16	=16	=16	=16	=16	=16	=16	=16	=16	=16	=16	=16	=16	=16
4G	.	2.G	.	2.d	.	2.g	.	2.b-	.	2.r	2.r	.	2.r	.	4G: 4B-:	8d:L 8g: 8b-: 8dd:	.	2.r	.	2.r	.	4.dd	.	4.bb-	.
.	.	.	.	.	.	.	.	.	.	.	.	.	.	.	.	8ccJ	.	.	.	.	.	.	.	.	.
8r	.	.	.	.	.	.	.	.	.	.	.	.	.	.	4r	8b-L	.	.	.	.	.	.	.	.	.
8DL	.	.	.	.	.	.	.	.	.	.	.	.	.	.	.	8aJ	.	.	.	.	.	8cc	.	8aa	.
8GG	.	.	.	.	.	.	.	.	.	.	.	.	.	.	4r	8b-L	.	.	.	.	.	8b-L	.	8ggL	.
8AAJ	.	.	.	.	.	.	.	.	.	.	.	.	.	.	.	8ccJ	.	.	.	.	.	8aJ	.	8ffJ	.
=17	=17	=17	=17	=17	=17	=17	=17	=17	=17	=17	=17	=17	=17	=17	=17	=17	=17	=17	=17	=17	=17	=17	=17	=17	=17
*M4/4	*	*M4/4	*	*M4/4	*	*M4/4	*	*M4/4	*	*M4/4	*M4/4	*	*M4/4	*	*M4/4	*M4/4	*	*M4/4	*	*M4/4	*	*M4/4	*	*M4/4	*
4BB-	.	2BB-	.	16r	.	8r	.	16B-LL	.	1r	1r	.	1r	.	2BB-: 2F: 2B-:	2f: 2b-: 2dd:	.	1r	.	1r	.	2f	.	2dd	.
.	.	.	.	16FLL	.	.	.	16c	.	.	.	.	.	.	.	.	.	.	.	.	.	.	.	.	.
.	.	.	.	16G	.	16B-LL	.	16d	.	.	.	.	.	.	.	.	.	.	.	.	.	.	.	.	.
.	.	.	.	16AJJ	.	16cJJ	.	16eJJ	.	.	.	.	.	.	.	.	.	.	.	.	.	.	.	.	.
4r	.	.	.	16B-LL	.	16dLL	.	16fLL	.	.	.	.	.	.	.	.	.	.	.	.	.	.	.	.	.
.	.	.	.	16c	.	16e	.	16g	.	.	.	.	.	.	.	.	.	.	.	.	.	.	.	.	.
.	.	.	.	16d	.	16f	.	16a	.	.	.	.	.	.	.	.	.	.	.	.	.	.	.	.	.
.	.	.	.	(16eJJ	.	16gJJ	.	16b-JJ	.	.	.	.	.	.	.	.	.	.	.	.	.	.	.	.	.
4C	.	2C	.	16eLL)	.	16aLL	.	16ccLL	.	.	.	.	.	.	2C: 2G:	2c: 2e: 2g: 2cc:	.	.	.	.	.	4.g	.	4.ee	.
.	.	.	.	16f	.	16b-	.	16dd	.	.	.	.	.	.	.	.	.	.	.	.	.	.	.	.	.
.	.	.	.	16g	.	16cc	.	16ee	.	.	.	.	.	.	.	.	.	.	.	.	.	.	.	.	.
.	.	.	.	16fJJ	.	16ddJJ	.	16ffJJ	.	.	.	.	.	.	.	.	.	.	.	.	.	.	.	.	.
16r	.	.	.	8eL	.	4cc	.	8ggL	.	.	.	.	.	.	.	.	.	.	.	.	.	.	.	.	.
16ELL	.	.	.	.	.	.	.	.	.	.	.	.	.	.	.	.	.	.	.	.	.	.	.	.	.
16C	.	.	.	8dJ	.	.	.	8ffJ	.	.	.	.	.	.	.	.	.	.	.	.	.	8a	.	8ff	.
16GGJJ	.	.	.	.	.	.	.	.	.	.	.	.	.	.	.	.	.	.	.	.	.	.	.	.	.
=18	=18	=18	=18	=18	=18	=18	=18	=18	=18	=18	=18	=18	=18	=18	=18	=18	=18	=18	=18	=18	=18	=18	=18	=18	=18
1FFZ	.	1FZ	.	1cZ	.	1aZ	.	1ffZ	.	1rZ	1rZ	.	1r	.	8F: 8c:	8f:L 8a: 8cc: 8ff:	.	1rZ	.	1rZ	.	1aZ	.	1ffZ	.
.	.	.	.	.	.	.	.	.	.	.	.	.	.	.	8r	16cL	.	.	.	.	.	.	.	.	.
.	.	.	.	.	.	.	.	.	.	.	.	.	.	.	.	16fJJ	.	.	.	.	.	.	.	.	.
.	.	.	.	.	.	.	.	.	.	.	.	.	.	.	4r	16gLL	.	.	.	.	.	.	.	.	.
.	.	.	.	.	.	.	.	.	.	.	.	.	.	.	.	16a	.	.	.	.	.	.	.	.	.
.	.	.	.	.	.	.	.	.	.	.	.	.	.	.	.	16cc	.	.	.	.	.	.	.	.	.
.	.	.	.	.	.	.	.	.	.	.	.	.	.	.	.	16ffJJ	.	.	.	.	.	.	.	.	.
.	.	.	.	.	.	.	.	.	.	.	.	.	.	.	2rZ	8gg	.	.	.	.	.	.	.	.	.
.	.	.	.	.	.	.	.	.	.	.	.	.	.	.	.	4aa	.	.	.	.	.	.	.	.	.
.	.	.	.	.	.	.	.	.	.	.	.	.	.	.	.	8rZ	.	.	.	.	.	.	.	.	.
=19||	=19||	=19||	=19||	=19||	=19||	=19||	=19||	=19||	=19||	=19||	=19||	=19||	=19||	=19||	=19||	=19||	=19||	=19||	=19||	=19||	=19||	=19||	=19||	=19||	=19||
*M2/4	*	*M2/4	*	*M2/4	*	*M2/4	*	*M2/4	*	*M2/4	*M2/4	*	*M2/4	*	*M2/4	*M2/4	*	*M2/4	*	*M2/4	*	*M2/4	*	*M2/4	*
*	*	*	*	*	*	*	*	*	*	*^	*	*	*	*	*	*	*	*	*	*	*	*	*	*	*
2r	.	2r	.	2r	.	2r	.	2r	.	2r	2r	2r	.	8r	.	2r	2r	.	2r	.	8r	.	2r	.	2r	.
.	.	.	.	.	.	.	.	.	.	.	.	.	.	8C	O-	.	.	.	.	.	8c	mf	.	.	.	.
.	.	.	.	.	.	.	.	.	.	.	.	.	.	8FL	-cza-	.	.	.	.	.	8fL	.	.	.	.	.
.	.	.	.	.	.	.	.	.	.	.	.	.	.	8GJ	-ro-	.	.	.	.	.	8gJ	.	.	.	.	.
*	*	*	*	*	*	*	*	*	*	*v	*v	*	*	*	*	*	*	*	*	*	*	*	*	*	*	*
=20	=20	=20	=20	=20	=20	=20	=20	=20	=20	=20	=20	=20	=20	=20	=20	=20	=20	=20	=20	=20	=20	=20	=20	=20	=20
*M4/4	*	*M4/4	*	*M4/4	*	*M4/4	*	*M4/4	*	*M4/4	*M4/4	*	*M4/4	*	*M4/4	*M4/4	*	*M4/4	*	*M4/4	*	*M4/4	*	*M4/4	*
*	*	*	*	*	*	*	*	*	*	*^	*	*	*	*	*	*	*	*	*	*	*	*	*	*	*
1r	.	2F	.	8r	.	8r	.	1r	.	1r	1r	1r	.	4G	-wa-	1r	1r	.	1r	.	4g	.	1r	.	1r	.
.	.	.	.	8AL	.	8cL	.	.	.	.	.	.	.	.	.	.	.	.	.	.	.	.	.	.	.	.
.	.	.	.	8f	.	8a	.	.	.	.	.	.	.	2A	-łaś	.	.	.	.	.	2a	.	.	.	.	.
.	.	.	.	8eJ	.	8gJ	.	.	.	.	.	.	.	.	.	.	.	.	.	.	.	.	.	.	.	.
.	.	2E	.	4.c	.	4.f	.	.	.	.	.	.	.	.	.	.	.	.	.	.	.	.	.	.	.	.
.	.	.	.	.	.	.	.	.	.	.	.	.	.	8FL	mo-	.	.	.	.	.	8fL	.	.	.	.	.
.	.	.	.	8r	.	8r	.	.	.	.	.	.	.	8GJ	-je	.	.	.	.	.	8gJ	.	.	.	.	.
=21	=21	=21	=21	=21	=21	=21	=21	=21	=21	=21	=21	=21	=21	=21	=21	=21	=21	=21	=21	=21	=21	=21	=21	=21	=21	=21
1r	.	2D	.	8r	.	8r	.	1r	.	1r	1r	1r	.	4G	ser-	1r	1r	.	1r	.	4g	.	1r	.	1r	.
.	.	.	.	8AL	.	8cL	.	.	.	.	.	.	.	.	.	.	.	.	.	.	.	.	.	.	.	.
.	.	.	.	8f	.	8a	.	.	.	.	.	.	.	4.A	-ce	.	.	.	.	.	4.a	.	.	.	.	.
.	.	.	.	8eJ	.	8gJ	.	.	.	.	.	.	.	.	.	.	.	.	.	.	.	.	.	.	.	.
.	.	2C	.	4.c	.	4.f	.	.	.	.	.	.	.	.	.	.	.	.	.	.	.	.	.	.	.	.
.	.	.	.	.	.	.	.	.	.	.	.	.	.	8CL	jed-	.	.	.	.	.	8cL	.	.	.	.	.
.	.	.	.	.	.	.	.	.	.	.	.	.	.	8G	-nym	.	.	.	.	.	8g	.	.	.	.	.
.	.	.	.	8r	.	8r	.	.	.	.	.	.	.	8AJ	spoj-	.	.	.	.	.	(8aJ	.	.	.	.	.
=22	=22	=22	=22	=22	=22	=22	=22	=22	=22	=22	=22	=22	=22	=22	=22	=22	=22	=22	=22	=22	=22	=22	=22	=22	=22	=22
1r	.	4.BB-	.	8r	.	8r	.	1r	.	1r	1r	1r	.	4A	-rze-	1r	1r	.	1r	.	16aLL)	.	1r	.	1r	.
.	.	.	.	.	.	.	.	.	.	.	.	.	.	.	.	.	.	.	.	.	16g	.	.	.	.	.
.	.	.	.	8B-L	.	8dL	.	.	.	.	.	.	.	.	.	.	.	.	.	.	16a	.	.	.	.	.
.	.	.	.	.	.	.	.	.	.	.	.	.	.	.	.	.	.	.	.	.	16ccJJ	.	.	.	.	.
.	.	.	.	8g	.	8b-	.	.	.	.	.	.	.	2B-	-niem	.	.	.	.	.	2b-	.	.	.	.	.
.	.	8AA	.	8fJ	.	8aJ	.	.	.	.	.	.	.	.	.	.	.	.	.	.	.	.	.	.	.	.
.	.	4GG	.	4.d	.	4.g	.	.	.	.	.	.	.	.	.	.	.	.	.	.	.	.	.	.	.	.
.	.	8AAL	.	.	.	.	.	.	.	.	.	.	.	8AL	two-	.	.	.	.	.	8aL	.	.	.	.	.
.	.	8BB-J	.	8d	.	8a	.	.	.	.	.	.	.	8FJ	-ich	.	.	.	.	.	8fJ	.	.	.	.	.
*	*	*	*	*	*	*	*	*	*	*v	*v	*	*	*	*	*	*	*	*	*	*	*	*	*	*	*
=23	=23	=23	=23	=23	=23	=23	=23	=23	=23	=23	=23	=23	=23	=23	=23	=23	=23	=23	=23	=23	=23	=23	=23	=23	=23
1r	.	2.C	.	2f	.	4a	.	1r	.	1r	1r	.	4F	o-	1r	1r	.	2r	.	8.fL	.	1r	.	1r	.
.	.	.	.	.	.	.	.	.	.	.	.	.	.	.	.	.	.	.	.	16aJk	.	.	.	.	.
.	.	.	.	.	.	2g	.	.	.	.	.	.	4G	-czu,	.	.	.	.	.	4.g	.	.	.	.	.
.	.	.	.	4e	.	.	.	.	.	.	.	.	8r	.	.	.	.	8r	.	.	.	.	.	.	.
.	.	.	.	.	.	.	.	.	.	.	.	.	8CL	jed-	.	.	.	8CL	mf	8r	.	.	.	.	.
.	.	8AL	.	4r	.	4r	.	.	.	.	.	.	8F	-nym	.	.	.	8F	.	4r	.	.	.	.	.
.	.	8GJ	.	.	.	.	.	.	.	.	.	.	8GJ	pa-	.	.	.	8GJ	.	.	.	.	.	.	.
=24	=24	=24	=24	=24	=24	=24	=24	=24	=24	=24	=24	=24	=24	=24	=24	=24	=24	=24	=24	=24	=24	=24	=24	=24	=24
1r	.	2F	.	8r	.	8r	.	1r	.	1r	1r	.	4G	-cior-	1r	1r	.	4G	.	1r	.	1r	.	1r	.
.	.	.	.	8AL	.	8cL	.	.	.	.	.	.	.	.	.	.	.	.	.	.	.	.	.	.	.
.	.	.	.	8f	.	8a	.	.	.	.	.	.	4.A	-kiem	.	.	.	4.A	.	.	.	.	.	.	.
.	.	.	.	8eJ	.	8gJ	.	.	.	.	.	.	.	.	.	.	.	.	.	.	.	.	.	.	.
.	.	2E	.	4.c	.	4.f	.	.	.	.	.	.	.	.	.	.	.	.	.	.	.	.	.	.	.
.	.	.	.	.	.	.	.	.	.	.	.	.	8CL	twych	.	.	.	8CL	.	.	.	.	.	.	.
.	.	.	.	.	.	.	.	.	.	.	.	.	8F	na-	.	.	.	8F	.	.	.	.	.	.	.
.	.	.	.	8r	.	8r	.	.	.	.	.	.	8GJ	-szyj-	.	.	.	8GJ	.	.	.	.	.	.	.
=25	=25	=25	=25	=25	=25	=25	=25	=25	=25	=25	=25	=25	=25	=25	=25	=25	=25	=25	=25	=25	=25	=25	=25	=25	=25
1r	.	2D	.	8r	.	8r	.	1r	.	1r	1r	.	4G	-ni-	1r	1r	.	4G	.	1r	.	1r	.	1r	.
.	.	.	.	8AL	.	8cL	.	.	.	.	.	.	.	.	.	.	.	.	.	.	.	.	.	.	.
.	.	.	.	8f	.	8a	.	.	.	.	.	.	4.A	-ków	.	.	.	4.A	.	.	.	.	.	.	.
.	.	.	.	8eJ	.	8gJ	.	.	.	.	.	.	.	.	.	.	.	.	.	.	.	.	.	.	.
.	.	2C	.	4.c	.	4.f	.	.	.	.	.	.	.	.	.	.	.	.	.	.	.	.	.	.	.
.	.	.	.	.	.	.	.	.	.	.	.	.	8CL	o-	.	.	.	8CL	.	.	.	.	.	.	.
.	.	.	.	.	.	.	.	.	.	.	.	.	8G	-cza-	.	.	.	8G	.	.	.	.	.	.	.
.	.	.	.	8r	.	8r	.	.	.	.	.	.	8AJ	-ro-	.	.	.	8AJ	.	.	.	.	.	.	.
=26	=26	=26	=26	=26	=26	=26	=26	=26	=26	=26	=26	=26	=26	=26	=26	=26	=26	=26	=26	=26	=26	=26	=26	=26	=26
1r	.	4.BB-	.	8r	.	8r	.	1r	.	1r	1r	.	4A	-wa-	1r	1r	.	4A	.	1r	.	1r	.	1r	.
.	.	.	.	8B-L	.	8dL	.	.	.	.	.	.	.	.	.	.	.	.	.	.	.	.	.	.	.
.	.	.	.	8g	.	8b-	.	.	.	.	.	.	2B-	-łaś	.	.	.	8B-L	.	.	.	.	.	.	.
.	.	8AA	.	8fJ	.	8aJ	.	.	.	.	.	.	.	.	.	.	.	8AJ	.	.	.	.	.	.	.
.	.	4GG	.	4d	.	4g	.	.	.	.	.	.	.	.	.	.	.	8DL	.	.	.	.	.	.	.
.	.	.	.	.	.	.	.	.	.	.	.	.	.	.	.	.	.	8F	.	.	.	.	.	.	.
.	.	8AAL	.	8cL	.	4a	.	.	.	.	.	.	8AL	ser-	.	.	.	8A	.	.	.	.	.	.	.
.	.	8BB-J	.	8dJ	.	.	.	.	.	.	.	.	8FJ	-ce	.	.	.	8FJ	.	.	.	.	.	.	.
=27	=27	=27	=27	=27	=27	=27	=27	=27	=27	=27	=27	=27	=27	=27	=27	=27	=27	=27	=27	=27	=27	=27	=27	=27	=27
*	*	*	*	*	*	*	*	*	*	*^	*^	*	*	*	*	*	*	*	*	*	*	*	*	*	*
2r	.	2C	.	2e	.	2g	.	2r	.	2r	2r	2r	2r	.	2G	me.	1r	1r	.	8G'L	.	1r	.	2r	.	1r	.
.	.	.	.	.	.	.	.	.	.	.	.	.	.	.	.	.	.	.	.	16FL	.	.	.	.	.	.	.
.	.	.	.	.	.	.	.	.	.	.	.	.	.	.	.	.	.	.	.	16GJJ	.	.	.	.	.	.	.
.	.	.	.	.	.	.	.	.	.	.	.	.	.	.	.	.	.	.	.	8EL	.	.	.	.	.	.	.
.	.	.	.	.	.	.	.	.	.	.	.	.	.	.	.	.	.	.	.	16DL	.	.	.	.	.	.	.
.	.	.	.	.	.	.	.	.	.	.	.	.	.	.	.	.	.	.	.	16EJJ	.	.	.	.	.	.	.
8r	.	8r	.	2r	.	2r	.	2r	.	8r	8ryy	8r	8r	.	2r	.	.	.	.	4C	.	.	.	8r	.	.	.
!LO:TX:a:t=arco	!	!	!	!	!	!	!	!	!	!	!	!	!	!	!	!	!	!	!	!	!	!	!	!	!	!	!
8CL	.	8CL	.	.	.	.	.	.	.	8CL	8CL	8cL	8cL	O-	.	.	.	.	.	.	.	.	.	8cL	.	.	.
8F	.	8F	.	.	.	.	.	.	.	8F	8F	8f	8f	-cza-	.	.	.	.	.	4r	.	.	.	8f	.	.	.
8GJ	.	8GJ	.	.	.	.	.	.	.	8cJ	8GJ	8gJ	8eJ	-ro-	.	.	.	.	.	.	.	.	.	8gJ	.	.	.
=28	=28	=28	=28	=28	=28	=28	=28	=28	=28	=28	=28	=28	=28	=28	=28	=28	=28	=28	=28	=28	=28	=28	=28	=28	=28	=28	=28
2F	.	2F	.	8r	.	8r	.	8r	.	4c	4F	4g	4e	-wa-	1r	.	1r	1r	.	1r	.	1r	.	4g	.	8r	.
.	.	.	.	8FL	.	8AL	.	8cL	.	.	.	.	.	.	.	.	.	.	.	.	.	.	.	.	.	16ffLL	.
.	.	.	.	.	.	.	.	.	.	.	.	.	.	.	.	.	.	.	.	.	.	.	.	.	.	16eeJJ	.
.	.	.	.	8c	.	8f	.	8a	.	2c	4F	2a	2f	-łaś	.	.	.	.	.	.	.	.	.	2a	.	16ffLL	.
.	.	.	.	.	.	.	.	.	.	.	.	.	.	.	.	.	.	.	.	.	.	.	.	.	.	16ee	.
.	.	.	.	8B-J	.	8eJ	.	8gJ	.	.	.	.	.	.	.	.	.	.	.	.	.	.	.	.	.	16dd	.
.	.	.	.	.	.	.	.	.	.	.	.	.	.	.	.	.	.	.	.	.	.	.	.	.	.	(16ccJJ	.
2E	.	2E	.	4.A	.	4.c	.	4.f	.	.	4.E	.	.	.	.	.	.	.	.	.	.	.	.	.	.	4.cc)	.
.	.	.	.	.	.	.	.	.	.	8cL	.	8fL	8dL	mo-	.	.	.	.	.	.	.	.	.	8fL	.	.	.
.	.	.	.	8r	.	8r	.	8r	.	8cJ	8E	8gJ	8eJ	-je	.	.	.	.	.	.	.	.	.	8gJ	.	8r	.
=29	=29	=29	=29	=29	=29	=29	=29	=29	=29	=29	=29	=29	=29	=29	=29	=29	=29	=29	=29	=29	=29	=29	=29	=29	=29	=29	=29
2D	.	2D	.	8r	.	8r	.	8r	.	4d	4D	4g	4e	ser-	1r	.	1r	1r	.	1r	.	1r	.	4g	.	8r	.
.	.	.	.	8FL	.	8AL	.	8cL	.	.	.	.	.	.	.	.	.	.	.	.	.	.	.	.	.	16ffLL	.
.	.	.	.	.	.	.	.	.	.	.	.	.	.	.	.	.	.	.	.	.	.	.	.	.	.	16eeJJ	.
.	.	.	.	8c	.	8f	.	8a	.	4.A	4D	4.a	4.f	-ce	.	.	.	.	.	.	.	.	.	4.a	.	16ffLL	.
.	.	.	.	.	.	.	.	.	.	.	.	.	.	.	.	.	.	.	.	.	.	.	.	.	.	16ee	.
.	.	.	.	8B-J	.	8eJ	.	8gJ	.	.	.	.	.	.	.	.	.	.	.	.	.	.	.	.	.	16dd	.
.	.	.	.	.	.	.	.	.	.	.	.	.	.	.	.	.	.	.	.	.	.	.	.	.	.	16ccJJ	.
2C	.	2C	.	4.c	.	4.f	.	4.a	.	.	4C	.	.	.	.	.	.	.	.	.	.	.	.	.	.	4.ff	.
.	.	.	.	.	.	.	.	.	.	8AL	.	8cL	8cL	jed-	.	.	.	.	.	.	.	.	.	8cL	.	.	.
.	.	.	.	.	.	.	.	.	.	8G	8CL	8g	8e	-nym	.	.	.	.	.	.	.	.	.	8g	.	.	.
.	.	.	.	8r	.	8r	.	8r	.	8AJ	8CJ	8aJ	8fJ	spoj-	.	.	.	.	.	.	.	.	.	8aJ	.	8r	.
=30	=30	=30	=30	=30	=30	=30	=30	=30	=30	=30	=30	=30	=30	=30	=30	=30	=30	=30	=30	=30	=30	=30	=30	=30	=30	=30	=30
4.BB-	.	4.BB-	.	8r	.	8r	.	8r	.	4F	(4.BB-	4a	(8dL	-rze-	1r	.	1r	1r	.	4r	.	1r	.	4a	.	1r	.
.	.	.	.	8GL	.	8B-L	.	8dL	.	.	.	.	8eJ)	.	.	.	.	.	.	.	.	.	.	.	.	.	.
.	.	.	.	8d	.	8g	.	8b-	.	2d	.	2b-	2f	-niem	.	.	.	.	.	8fL	.	.	.	2b-	.	.	.
8AA	.	8AA	.	8cJ	.	8fJ	.	8aJ	.	.	8AA)	.	.	.	.	.	.	.	.	8eJ	.	.	.	.	.	.	.
4GG	.	4GG	.	4.B-	.	4.d	.	4.g	.	.	4GG	.	.	.	.	.	.	.	.	8dL	.	.	.	.	.	.	.
.	.	.	.	.	.	.	.	.	.	.	.	.	.	.	.	.	.	.	.	8c	.	.	.	.	.	.	.
8AAL	.	8AAL	.	.	.	.	.	.	.	8cL	8AAL	8aL	8fL	two-	.	.	.	.	.	8A	.	.	.	8aL	.	.	.
8BB-J	.	8BB-J	.	8d	.	8f	.	8a	.	8B-J	8BB-J	8fJ	8dJ	-ich	.	.	.	.	.	8B-J	.	.	.	8fJ	.	.	.
=31	=31	=31	=31	=31	=31	=31	=31	=31	=31	=31	=31	=31	=31	=31	=31	=31	=31	=31	=31	=31	=31	=31	=31	=31	=31	=31	=31
4C	.	4C	.	16ALL	.	4f	.	4a	.	(16ALL	4C	4f	4d	o-	1r	.	1r	1r	.	2c	.	1r	.	4f	.	2r	.
.	.	.	.	16G	.	.	.	.	.	16G)	.	.	.	.	.	.	.	.	.	.	.	.	.	.	.	.	.
.	.	.	.	16A	.	.	.	.	.	16A	.	.	.	.	.	.	.	.	.	.	.	.	.	.	.	.	.
.	.	.	.	16B-JJ	.	.	.	.	.	16B-JJ	.	.	.	.	.	.	.	.	.	.	.	.	.	.	.	.	.
4C	.	4C	.	4c	.	4e	.	4g	.	4c	4C	4g	4e	-czu,	.	.	.	.	.	.	.	.	.	4.g	.	.	.
8r	.	8r	.	2r	.	2r	.	2r	.	8r	8r	8r	8r	.	.	.	.	.	.	2r	.	.	.	.	.	8r	.
8CL	.	8CL	.	.	.	.	.	.	.	8CL	8CL	8cL	8cL	jed-	.	.	.	.	.	.	.	.	.	8r	.	8ccL	.
8F	.	8F	.	.	.	.	.	.	.	8F	8F	8f	8f	-nym	.	.	.	.	.	.	.	.	.	4r	.	8ff	.
8GJ	.	8GJ	.	.	.	.	.	.	.	8cJ	8GJ	8gJ	8eJ	pa-	.	.	.	.	.	.	.	.	.	.	.	8ggJ	.
=32	=32	=32	=32	=32	=32	=32	=32	=32	=32	=32	=32	=32	=32	=32	=32	=32	=32	=32	=32	=32	=32	=32	=32	=32	=32	=32	=32
2F	.	2F	.	8r	.	8r	.	8r	.	4c	4F	4g	4e	-cior-	1r	.	1r	1r	.	1r	.	1r	.	8r	.	4gg	.
.	.	.	.	8FL	.	8AL	.	8cL	.	.	.	.	.	.	.	.	.	.	.	.	.	.	.	16ffLL	.	.	.
.	.	.	.	.	.	.	.	.	.	.	.	.	.	.	.	.	.	.	.	.	.	.	.	16eeJJ	.	.	.
.	.	.	.	8c	.	8f	.	8a	.	4.c	4F	4.a	4.f	-kiem	.	.	.	.	.	.	.	.	.	16ffLL	.	4.aa	.
.	.	.	.	.	.	.	.	.	.	.	.	.	.	.	.	.	.	.	.	.	.	.	.	16ee	.	.	.
.	.	.	.	8B-J	.	8eJ	.	8gJ	.	.	.	.	.	.	.	.	.	.	.	.	.	.	.	16dd	.	.	.
.	.	.	.	.	.	.	.	.	.	.	.	.	.	.	.	.	.	.	.	.	.	.	.	(16ccJJ	.	.	.
2E	.	2E	.	4.A	.	4.c	.	4.f	.	.	4E	.	.	.	.	.	.	.	.	.	.	.	.	4.cc)	.	.	.
.	.	.	.	.	.	.	.	.	.	8cL	.	8cL	8cL	twych	.	.	.	.	.	.	.	.	.	.	.	8ccL	.
.	.	.	.	.	.	.	.	.	.	8c	8EL	8f	8d	na-	.	.	.	.	.	.	.	.	.	.	.	8ff	.
.	.	.	.	8r	.	8r	.	8r	.	8cJ	8EJ	8gJ	8eJ	-szyj-	.	.	.	.	.	.	.	.	.	8r	.	8ggJ	.
=33	=33	=33	=33	=33	=33	=33	=33	=33	=33	=33	=33	=33	=33	=33	=33	=33	=33	=33	=33	=33	=33	=33	=33	=33	=33	=33	=33
2D	.	2D	.	8r	.	8r	.	8r	.	4d	4D	4g	4e	-ni-	1r	.	1r	1r	.	1r	.	1r	.	8r	.	4gg	.
.	.	.	.	8FL	.	8AL	.	8cL	.	.	.	.	.	.	.	.	.	.	.	.	.	.	.	16ffLL	.	.	.
.	.	.	.	.	.	.	.	.	.	.	.	.	.	.	.	.	.	.	.	.	.	.	.	16eeJJ	.	.	.
.	.	.	.	8c	.	8f	.	8a	.	4.A	4D	4.a	4.f	-ków	.	.	.	.	.	.	.	.	.	16ffLL	.	4.aa	.
.	.	.	.	.	.	.	.	.	.	.	.	.	.	.	.	.	.	.	.	.	.	.	.	16ee	.	.	.
.	.	.	.	8B-J	.	8eJ	.	8gJ	.	.	.	.	.	.	.	.	.	.	.	.	.	.	.	16dd	.	.	.
.	.	.	.	.	.	.	.	.	.	.	.	.	.	.	.	.	.	.	.	.	.	.	.	16ccJJ	.	.	.
2C	.	2C	.	4.c	.	4.f	.	4.a	.	.	4C	.	.	.	.	.	.	.	.	.	.	.	.	4.a	.	.	.
.	.	.	.	.	.	.	.	.	.	8AL	.	8cL	8cL	o-	.	.	.	.	.	.	.	.	.	.	.	8ccL	.
.	.	.	.	.	.	.	.	.	.	8G	8CL	8g	8e	-cza-	.	.	.	.	.	.	.	.	.	.	.	8gg	.
.	.	.	.	8r	.	8r	.	8r	.	8AJ	8CJ	8aJ	8fJ	-ro-	.	.	.	.	.	.	.	.	.	8r	.	8aaJ	.
=34	=34	=34	=34	=34	=34	=34	=34	=34	=34	=34	=34	=34	=34	=34	=34	=34	=34	=34	=34	=34	=34	=34	=34	=34	=34	=34	=34
4.BB-	.	4.BB-	.	8r	.	8r	.	8r	.	4F	(4.BB-	4a	(8dL	-wa-	1r	.	1r	1r	.	4r	.	1r	.	1r	.	4aa	.
.	.	.	.	8GL	.	8B-L	.	8dL	.	.	.	.	8eJ)	.	.	.	.	.	.	.	.	.	.	.	.	.	.
.	.	.	.	8d	.	8g	.	8b-	.	2d	.	2b-	2f	-łaś	.	.	.	.	.	8fL	.	.	.	.	.	2bb-	.
8AA	.	8AA	.	8cJ	.	8fJ	.	8aJ	.	.	8AA)	.	.	.	.	.	.	.	.	8eJ	.	.	.	.	.	.	.
4GG	.	4GG	.	4c	.	4g	.	4b-	.	.	4GG	.	.	.	.	.	.	.	.	8dL	.	.	.	.	.	.	.
.	.	.	.	.	.	.	.	.	.	.	.	.	.	.	.	.	.	.	.	8c	.	.	.	.	.	.	.
8AAL	.	8AAL	.	8cL	.	4f	.	4a	.	8cL	8AAL	8aL	8fL	ser-	.	.	.	.	.	8A	.	.	.	.	.	8aaL	.
8BB-J	.	8BB-J	.	8dJ	.	.	.	.	.	8dJ	8BB-J	8fJ	8dJ	-ce	.	.	.	.	.	8B-J	.	.	.	.	.	8ffJ	.
=35	=35	=35	=35	=35	=35	=35	=35	=35	=35	=35	=35	=35	=35	=35	=35	=35	=35	=35	=35	=35	=35	=35	=35	=35	=35	=35	=35
2C	.	2C	.	2c	.	2e	.	2g	.	2c	2C	2g	2e	me.	1r	.	1r	1r	.	16cLL	.	1r	.	1r	.	2gg	.
.	.	.	.	.	.	.	.	.	.	.	.	.	.	.	.	.	.	.	.	16G	.	.	.	.	.	.	.
.	.	.	.	.	.	.	.	.	.	.	.	.	.	.	.	.	.	.	.	16E	.	.	.	.	.	.	.
.	.	.	.	.	.	.	.	.	.	.	.	.	.	.	.	.	.	.	.	16CJJ	.	.	.	.	.	.	.
.	.	.	.	.	.	.	.	.	.	.	.	.	.	.	.	.	.	.	.	16GGLL	.	.	.	.	.	.	.
.	.	.	.	.	.	.	.	.	.	.	.	.	.	.	.	.	.	.	.	16C	.	.	.	.	.	.	.
.	.	.	.	.	.	.	.	.	.	.	.	.	.	.	.	.	.	.	.	16E	.	.	.	.	.	.	.
.	.	.	.	.	.	.	.	.	.	.	.	.	.	.	.	.	.	.	.	16GJJ	.	.	.	.	.	.	.
4.r	.	4.r	.	4.r	.	4.r	.	4.r	.	8r	8r	8r	8r	.	.	.	.	.	.	4C	.	.	.	.	.	2r	.
.	.	.	.	.	.	.	.	.	.	8cL	8CL	8gL	8eL	Je-	.	.	.	.	.	.	.	.	.	.	.	.	.
.	.	.	.	.	.	.	.	.	.	8d	8G	8b-	8g	-steś	.	.	.	.	.	4r	.	.	.	.	.	.	.
!LO:TX:a:t=pizz.	!	!LO:TX:a:t=pizz.	!	!LO:TX:a:t=pizz.	!	!LO:TX:a:t=pizz.	!	!LO:TX:a:t=pizz.	!	!	!	!	!	!	!	!	!	!	!	!	!	!	!	!	!	!	!
8A	.	8A	.	8c	.	8f	.	8cc	.	8cJ	8AJ	8ccJ	8fJ	o-	.	.	.	.	.	.	.	.	.	.	.	.	.
*	*	*	*	*	*	*	*	*	*	*v	*v	*	*	*	*	*	*	*	*	*	*	*	*	*	*	*	*
*	*	*	*	*	*	*	*	*	*	*	*v	*v	*	*	*	*	*	*	*	*	*	*	*	*	*	*
=36	=36	=36	=36	=36	=36	=36	=36	=36	=36	=36	=36	=36	=36	=36	=36	=36	=36	=36	=36	=36	=36	=36	=36	=36	=36
*M3/4	*	*M3/4	*	*M3/4	*	*M3/4	*	*M3/4	*	*M3/4	*M3/4	*	*M3/4	*	*M3/4	*M3/4	*	*M3/4	*	*M3/4	*	*M3/4	*	*M3/4	*
*	*	*	*	*	*	*	*	*	*	*^	*^	*	*	*	*	*	*	*	*	*	*	*	*	*	*
8B-	.	8B-	.	8B-	.	8f	.	8cc	.	4B-	4B-	(8ccL	4f	-gro-	2.r	.	2.r	2.r	.	2.r	.	2.r	.	2.r	.	8r	.
8r	.	8r	.	8r	.	8r	.	8r	.	.	.	8ddJ)	.	.	.	.	.	.	.	.	.	.	.	.	.	8f	.
8BB-	.	8BB-	.	8B-	.	8f	.	8dd	.	4.B-	4.B-	4.dd	4.f	-dem	.	.	.	.	.	.	.	.	.	.	.	8b-L	.
4r	.	4r	.	4r	.	4r	.	4r	.	.	.	.	.	.	.	.	.	.	.	.	.	.	.	.	.	8ccJ	.
.	.	.	.	.	.	.	.	.	.	.	.	.	.	.	.	.	.	.	.	.	.	.	.	.	.	12ddL	.
.	.	.	.	.	.	.	.	.	.	.	.	.	.	.	.	.	.	.	.	.	.	.	.	.	.	12cc	.
16B-LL	.	16B-LL	.	8B-	.	8f	.	8dd	.	8B-	8B-	8dd	8f	zam-	.	.	.	.	.	.	.	.	.	.	.	.	.
.	.	.	.	.	.	.	.	.	.	.	.	.	.	.	.	.	.	.	.	.	.	.	.	.	.	12b-J	.
16FJJ	.	16FJJ	.	.	.	.	.	.	.	.	.	.	.	.	.	.	.	.	.	.	.	.	.	.	.	.	.
=37	=37	=37	=37	=37	=37	=37	=37	=37	=37	=37	=37	=37	=37	=37	=37	=37	=37	=37	=37	=37	=37	=37	=37	=37	=37	=37	=37
8A	.	8A	.	8c	.	8g	.	8cc	.	4c	4A	(8ccL	(8gL	-knię-	2.r	.	2.r	2.r	.	2.r	.	2r	.	2.r	.	4cc	.
8r	.	8r	.	8r	.	8r	.	8r	.	.	.	8fJ)	8fJ)	.	.	.	.	.	.	.	.	.	.	.	.	.	.
8AA	.	8AA	.	8c	.	8f	.	8cc	.	4c	4A	4f	4f	-tym,	.	.	.	.	.	.	.	.	.	.	.	4ff	.
4r	.	4r	.	4r	.	4r	.	4r	.	.	.	.	.	.	.	.	.	.	.	.	.	.	.	.	.	.	.
.	.	.	.	.	.	.	.	.	.	8cL	8AL	8gL	8fL	źró-	.	.	.	.	.	.	.	8gL	.	.	.	4r	.
16DLL	.	16DLL	.	8A	.	8f	.	8dd	.	8dJ	8DJ	8aJ	8fJ	-dłem	.	.	.	.	.	.	.	8aJ	.	.	.	.	.
16FJJ	.	16FJJ	.	.	.	.	.	.	.	.	.	.	.	.	.	.	.	.	.	.	.	.	.	.	.	.	.
=38	=38	=38	=38	=38	=38	=38	=38	=38	=38	=38	=38	=38	=38	=38	=38	=38	=38	=38	=38	=38	=38	=38	=38	=38	=38	=38	=38
8G	.	8G	.	8d	.	8g	.	8b-	.	4.d	4.G	4.b-	4.g	za-	2.r	.	2.r	2.r	.	2.r	.	4b-	.	2.r	.	2.r	.
16r	.	16r	.	8r	.	8r	.	8r	.	.	.	.	.	.	.	.	.	.	.	.	.	.	.	.	.	.	.
16DKL	.	16DKL	.	.	.	.	.	.	.	.	.	.	.	.	.	.	.	.	.	.	.	.	.	.	.	.	.
8GJ	.	8GJ	.	8d	.	8g	.	8b-	.	.	.	.	.	.	.	.	.	.	.	.	.	8gL	.	.	.	.	.
4r	.	4r	.	4r	.	4r	.	4r	.	8d	8G	8a	8f	-pie-	.	.	.	.	.	.	.	8aJ	.	.	.	.	.
.	.	.	.	.	.	.	.	.	.	8cL	8GL	8gL	8eL	-czę-	.	.	.	.	.	.	.	8b-L	.	.	.	.	.
8G	.	8G	.	8d	.	8f	.	8b-	.	8B-J	8GJ	8fJ	8dJ	-to-	.	.	.	.	.	.	.	8gJ	.	.	.	.	.
*	*	*	*	*	*	*	*	*	*	*v	*v	*	*	*	*	*	*	*	*	*	*	*	*	*	*	*	*
*	*	*	*	*	*	*	*	*	*	*	*v	*v	*	*	*	*	*	*	*	*	*	*	*	*	*	*
=39	=39	=39	=39	=39	=39	=39	=39	=39	=39	=39	=39	=39	=39	=39	=39	=39	=39	=39	=39	=39	=39	=39	=39	=39	=39
*M4/4	*	*M4/4	*	*M4/4	*	*M4/4	*	*M4/4	*	*M4/4	*M4/4	*	*M4/4	*	*M4/4	*M4/4	*	*M4/4	*	*M4/4	*	*M4/4	*	*M4/4	*
*	*	*	*	*	*	*	*	*	*	*^	*^	*	*	*	*	*	*	*	*	*	*	*	*	*	*
8.DL	.	8.DL	.	8d	.	8g	.	8dd	.	4A	4D	(8gL	(8dL	-wa-	1r	.	1r	1r	.	1r	.	(16aLL	.	1r	.	1r	.
.	.	.	.	.	.	.	.	.	.	.	.	.	.	.	.	.	.	.	.	.	.	16b-	.	.	.	.	.
.	.	.	.	8r	.	8r	.	8r	.	.	.	8aJ)	8eJ)	.	.	.	.	.	.	.	.	16a	.	.	.	.	.
16AJk	.	16AJk	.	.	.	.	.	.	.	.	.	.	.	.	.	.	.	.	.	.	.	16gJJ	.	.	.	.	.
8eL	.	8eL	.	8e	.	8a	.	8dd	.	4.A	4.D	4.a	4.f	-nym.	.	.	.	.	.	.	.	16fLL	.	.	.	.	.
.	.	.	.	.	.	.	.	.	.	.	.	.	.	.	.	.	.	.	.	.	.	16g	.	.	.	.	.
8dJ	.	8dJ	.	4r	.	4r	.	4r	.	.	.	.	.	.	.	.	.	.	.	.	.	16f	.	.	.	.	.
.	.	.	.	.	.	.	.	.	.	.	.	.	.	.	.	.	.	.	.	.	.	16eJJ	.	.	.	.	.
8r	.	8r	.	.	.	.	.	.	.	.	.	.	.	.	.	.	.	.	.	.	.	4d)	.	.	.	.	.
8cL	.	8cL	.	8cL	.	8fL	.	8aL	.	8cL	8CL	8aL	8fL	Je-	.	.	.	.	.	.	.	.	.	.	.	.	.
8B-	.	8B-	.	8d	.	8g	.	8b-	.	8d	8BB-	8b-	8f	-steś	.	.	.	.	.	.	.	4r	.	.	.	.	.
8AJ	.	8AJ	.	8cJ	.	8aJ	.	8ccJ	.	8cJ	8AAJ	8ccJ	8fJ	o-	.	.	.	.	.	.	.	.	.	.	.	.	.
*	*	*	*	*	*	*	*	*	*	*v	*v	*	*	*	*	*	*	*	*	*	*	*	*	*	*	*	*
*	*	*	*	*	*	*	*	*	*	*	*v	*v	*	*	*	*	*	*	*	*	*	*	*	*	*	*
=40	=40	=40	=40	=40	=40	=40	=40	=40	=40	=40	=40	=40	=40	=40	=40	=40	=40	=40	=40	=40	=40	=40	=40	=40	=40
*M3/4	*	*M3/4	*	*M3/4	*	*M3/4	*	*M3/4	*	*M3/4	*M3/4	*	*M3/4	*	*M3/4	*M3/4	*	*M3/4	*	*M3/4	*	*M3/4	*	*M3/4	*
*	*	*	*	*	*	*	*	*	*	*^	*^	*	*	*	*	*	*	*	*	*	*	*	*	*	*
8B-	.	8B-	.	8B-	.	8f	.	8cc	.	4B-	4BB-	(8ccL	4f	-gro-	2.r	.	2.r	2.r	.	2.r	.	2.r	.	2.r	.	8r	.
8r	.	8r	.	8r	.	8r	.	8r	.	.	.	8ddJ)	.	.	.	.	.	.	.	.	.	.	.	.	.	8f	.
8BB-	.	8BB-	.	8B-	.	8f	.	8dd	.	4.B-	4.BB-	4.dd	4.f	-dem	.	.	.	.	.	.	.	.	.	.	.	8b-L	.
4r	.	4r	.	4r	.	4r	.	4r	.	.	.	.	.	.	.	.	.	.	.	.	.	.	.	.	.	8ccJ	.
.	.	.	.	.	.	.	.	.	.	.	.	.	.	.	.	.	.	.	.	.	.	.	.	.	.	12ddL	.
.	.	.	.	.	.	.	.	.	.	.	.	.	.	.	.	.	.	.	.	.	.	.	.	.	.	12ff	.
16FLL	.	16FLL	.	8B-	.	8f	.	8dd	.	8B-	8BB-	8dd	8f	zam-	.	.	.	.	.	.	.	.	.	.	.	.	.
.	.	.	.	.	.	.	.	.	.	.	.	.	.	.	.	.	.	.	.	.	.	.	.	.	.	12bb-J	.
16BB-JJ	.	16BB-JJ	.	.	.	.	.	.	.	.	.	.	.	.	.	.	.	.	.	.	.	.	.	.	.	.	.
=41	=41	=41	=41	=41	=41	=41	=41	=41	=41	=41	=41	=41	=41	=41	=41	=41	=41	=41	=41	=41	=41	=41	=41	=41	=41	=41	=41
8AA	.	8AA	.	8F	.	8g	.	8cc	.	4c	4AA	(8ccL	(8gL	-knię-	2.r	.	2.r	2.r	.	2.r	.	2.r	.	2.r	.	8ccc'L	.
8r	.	8r	.	8r	.	8r	.	8r	.	.	.	8fJ)	8fJ)	.	.	.	.	.	.	.	.	.	.	.	.	16bb-L	.
.	.	.	.	.	.	.	.	.	.	.	.	.	.	.	.	.	.	.	.	.	.	.	.	.	.	16aaJJ	.
8AA	.	8AA	.	8F	.	8c	.	8f	.	4c	4AA	4f	4f	-tym,	.	.	.	.	.	.	.	.	.	.	.	16ggLL	.
.	.	.	.	.	.	.	.	.	.	.	.	.	.	.	.	.	.	.	.	.	.	.	.	.	.	16aa	.
4r	.	4r	.	4r	.	4r	.	4r	.	.	.	.	.	.	.	.	.	.	.	.	.	.	.	.	.	16gg	.
.	.	.	.	.	.	.	.	.	.	.	.	.	.	.	.	.	.	.	.	.	.	.	.	.	.	16ffJJ	.
.	.	.	.	.	.	.	.	.	.	8cL	8AAL	8gL	8fL	źród-	.	.	.	.	.	.	.	.	.	.	.	4cc	.
!LO:TX:a:t=arco	!	!LO:TX:a:t=arco	!	!LO:TX:a:t=arco	!	!LO:TX:a:t=arco	!	!LO:TX:a:t=arco	!	!	!	!	!	!	!	!	!	!	!	!	!	!	!	!	!	!	!
8AA	mp	8AA	mp	8c	mp	8e	mp	8a	mp	8cJ	8AAJ	8aJ	8eJ	-łem	.	.	.	.	.	.	.	.	.	.	.	.	.
=42	=42	=42	=42	=42	=42	=42	=42	=42	=42	=42	=42	=42	=42	=42	=42	=42	=42	=42	=42	=42	=42	=42	=42	=42	=42	=42	=42
2GG	.	2GG	.	4.G	.	2d	.	4.b-	.	4.G	4.GG	4.b-	4.d	za-	2.r	.	2.r	2.r	.	2.r	.	2.r	.	2.r	.	2.r	.
.	.	.	.	8F	.	.	.	8a	.	8F	8GG	8a	8d	-pie-	.	.	.	.	.	.	.	.	.	.	.	.	.
8AAL	.	8AAL	.	8EL	.	8cL	.	8gL	.	8EL	8AAL	8gL	8cL	-czę-	.	.	.	.	.	.	.	.	.	.	.	.	.
8BB-J	.	8BB-J	.	8AJ	.	8dJ	.	8fJ	.	8AJ	8BB-J	8fJ	8dJ	-to-	.	.	.	.	.	.	.	.	.	.	.	.	.
=43	=43	=43	=43	=43	=43	=43	=43	=43	=43	=43	=43	=43	=43	=43	=43	=43	=43	=43	=43	=43	=43	=43	=43	=43	=43	=43	=43
2.C	.	2.C	.	2.G	.	4d	.	2e	.	2.G	2.C	(2e	(4d	-wa-	2.r	.	2.r	2.r	.	2.r	.	2.r	.	2.r	.	2.r	.
.	.	.	.	.	.	2c	.	.	.	.	.	.	2c)	.	.	.	.	.	.	.	.	.	.	.	.	.	.
.	.	.	.	.	.	.	.	4f	.	.	.	4f)	.	.	.	.	.	.	.	.	.	.	.	.	.	.	.
=44	=44	=44	=44	=44	=44	=44	=44	=44	=44	=44	=44	=44	=44	=44	=44	=44	=44	=44	=44	=44	=44	=44	=44	=44	=44	=44	=44
2.F	.	2.F	.	2.A	.	2.c	.	2.f	.	2.A	2.F	2.f	2.c	-nym.	2.r	.	2.r	2.r	.	2.r	.	2.r	.	2.r	.	2.r	.
=45	=45	=45	=45	=45	=45	=45	=45	=45	=45	=45	=45	=45	=45	=45	=45	=45	=45	=45	=45	=45	=45	=45	=45	=45	=45	=45	=45
2.r	.	2.r	.	2.r	.	2.r	.	2.r	.	4.r	4.r	4.r	4.r	.	2.r	.	2.r	2.r	.	2.r	.	2.r	.	4.r	.	2.r	.
.	.	.	.	.	.	.	.	.	.	8C	8C	8c	8c	O-	.	.	.	.	.	.	.	.	.	8c	.	.	.
.	.	.	.	.	.	.	.	.	.	8FL	8FL	8fL	8fL	-cza-	.	.	.	.	.	.	.	.	.	8fL	.	.	.
.	.	.	.	.	.	.	.	.	.	8cJ	8GJ	8gJ	8eJ	-ro-	.	.	.	.	.	.	.	.	.	8gJ	.	.	.
*	*	*	*	*	*	*	*	*	*	*v	*v	*	*	*	*	*	*	*	*	*	*	*	*	*	*	*	*
*	*	*	*	*	*	*	*	*	*	*	*v	*v	*	*	*	*	*	*	*	*	*	*	*	*	*	*
=46	=46	=46	=46	=46	=46	=46	=46	=46	=46	=46	=46	=46	=46	=46	=46	=46	=46	=46	=46	=46	=46	=46	=46	=46	=46
*M4/4	*	*M4/4	*	*M4/4	*	*M4/4	*	*M4/4	*	*M4/4	*M4/4	*	*M4/4	*	*M4/4	*M4/4	*	*M4/4	*	*M4/4	*	*M4/4	*	*M4/4	*
*	*	*	*	*	*	*	*	*	*	*^	*^	*	*	*	*	*	*	*	*	*	*	*	*	*	*
1r	.	2F	mf	8r	.	8r	.	8r	.	4c	4F	4g	4e	-wa-	1r	.	1r	1r	.	1r	.	1r	.	4g	.	1r	.
.	.	.	.	8FL	mf	8AL	mf	8cL	mf	.	.	.	.	.	.	.	.	.	.	.	.	.	.	.	.	.	.
.	.	.	.	8c	.	8f	.	8a	.	2c	4F	2a	2f	-łaś	.	.	.	.	.	.	.	.	.	2a	.	.	.
.	.	.	.	8B-J	.	8eJ	.	8gJ	.	.	.	.	.	.	.	.	.	.	.	.	.	.	.	.	.	.	.
.	.	2E	.	4.A	.	4.c	.	4.f	.	.	4.E	.	.	.	.	.	.	.	.	.	.	.	.	.	.	.	.
.	.	.	.	.	.	.	.	.	.	8cL	.	8fL	8dL	mo-	.	.	.	.	.	.	.	.	.	8fL	.	.	.
.	.	.	.	8r	.	8r	.	8r	.	8cJ	8E	8gJ	8eJ	-je	.	.	.	.	.	.	.	.	.	8gJ	.	.	.
=47	=47	=47	=47	=47	=47	=47	=47	=47	=47	=47	=47	=47	=47	=47	=47	=47	=47	=47	=47	=47	=47	=47	=47	=47	=47	=47	=47
1r	.	2D	.	8r	.	8r	.	8r	.	4d	4D	4g	4e	ser-	1r	.	1r	1r	.	1r	.	1r	.	4g	.	2r	.
.	.	.	.	8FL	.	8AL	.	8cL	.	.	.	.	.	.	.	.	.	.	.	.	.	.	.	.	.	.	.
.	.	.	.	8c	.	8f	.	8a	.	4.A	4D	4.a	4.f	-ce	.	.	.	.	.	.	.	.	.	4.a	.	.	.
.	.	.	.	8B-J	.	8eJ	.	8gJ	.	.	.	.	.	.	.	.	.	.	.	.	.	.	.	.	.	.	.
.	.	2C	.	4.c	.	4.f	.	4.a	.	.	4C	.	.	.	.	.	.	.	.	.	.	.	.	.	.	4r	.
.	.	.	.	.	.	.	.	.	.	8AL	.	8cL	8cL	jed-	.	.	.	.	.	.	.	.	.	8cL	.	.	.
.	.	.	.	.	.	.	.	.	.	8G	8CL	8g	8e	-nym	.	.	.	.	.	.	.	.	.	8g	.	8r	.
.	.	.	.	8r	.	8r	.	8r	.	8AJ	8CJ	8aJ	8fJ	spoj-	.	.	.	.	.	.	.	.	.	8aJ	.	8r	.
=48	=48	=48	=48	=48	=48	=48	=48	=48	=48	=48	=48	=48	=48	=48	=48	=48	=48	=48	=48	=48	=48	=48	=48	=48	=48	=48	=48
1r	.	4.BB-	.	8r	.	8r	.	8r	.	4F	(4.BB-	4a	(8dL	-rze-	1r	.	1r	1r	.	1r	.	1r	.	4a	.	1r	.
.	.	.	.	8GL	.	8B-L	.	8dL	.	.	.	.	8eJ)	.	.	.	.	.	.	.	.	.	.	.	.	.	.
.	.	.	.	8d	.	8g	.	8b-	.	2d	.	2b-	2f	-niem	.	.	.	.	.	.	.	.	.	2b-	.	.	.
.	.	8AA	.	8cJ	.	8fJ	.	8aJ	.	.	8AA)	.	.	.	.	.	.	.	.	.	.	.	.	.	.	.	.
.	.	4GG	.	4.B-	.	4.d	.	4.g	.	.	4GG	.	.	.	.	.	.	.	.	.	.	.	.	.	.	.	.
.	.	8AAL	.	.	.	.	.	.	.	8cL	8AAL	8aL	8fL	two-	.	.	.	.	.	.	.	.	.	8aL	.	.	.
.	.	8BB-J	.	8d	.	8f	.	8a	.	8B-J	8BB-J	8fJ	8dJ	-ich	.	.	.	.	.	.	.	.	.	8fJ	.	.	.
=49	=49	=49	=49	=49	=49	=49	=49	=49	=49	=49	=49	=49	=49	=49	=49	=49	=49	=49	=49	=49	=49	=49	=49	=49	=49	=49	=49
2r	.	4C	.	16ALL	.	4f	.	4a	.	(16ALL	4C	4f	4d	o-	1r	.	1r	1r	.	2r	.	1r	.	4f	.	2r	.
.	.	.	.	16G	.	.	.	.	.	16G)	.	.	.	.	.	.	.	.	.	.	.	.	.	.	.	.	.
.	.	.	.	16A	.	.	.	.	.	16A	.	.	.	.	.	.	.	.	.	.	.	.	.	.	.	.	.
.	.	.	.	16B-JJ	.	.	.	.	.	16B-JJ	.	.	.	.	.	.	.	.	.	.	.	.	.	.	.	.	.
.	.	4C	.	4c	.	4e	.	4g	.	4c	4C	4g	4e	-czu,	.	.	.	.	.	.	.	.	.	4.g	.	.	.
8r	.	8r	.	2r	.	2r	.	2r	.	8r	8r	8r	8r	.	.	.	.	.	.	2r	.	.	.	.	.	8r	.
!LO:TX:a:t=arco	!	!	!	!	!	!	!	!	!	!	!	!	!	!	!	!	!	!	!	!	!	!	!	!	!	!	!
8CL	mf	8CL	.	.	.	.	.	.	.	8CL	8CL	8cL	8cL	jed-	.	.	.	.	.	.	.	.	.	8r	.	8ccL	.
8F	.	8F	.	.	.	.	.	.	.	8F	8F	8f	8f	-nym	.	.	.	.	.	.	.	.	.	4r	.	8ff	.
8GJ	.	8GJ	.	.	.	.	.	.	.	8cJ	8GJ	8gJ	8eJ	pa-	.	.	.	.	.	.	.	.	.	.	.	8ggJ	.
=50	=50	=50	=50	=50	=50	=50	=50	=50	=50	=50	=50	=50	=50	=50	=50	=50	=50	=50	=50	=50	=50	=50	=50	=50	=50	=50	=50
2F	.	2F	.	8r	.	8r	.	8r	.	4c	4F	4g	4e	-cior-	1r	.	1r	1r	.	1r	.	1r	.	8r	.	4gg	.
.	.	.	.	8FL	.	8AL	.	8cL	.	.	.	.	.	.	.	.	.	.	.	.	.	.	.	16ffLL	.	.	.
.	.	.	.	.	.	.	.	.	.	.	.	.	.	.	.	.	.	.	.	.	.	.	.	16eeJJ	.	.	.
.	.	.	.	8c	.	8f	.	8a	.	4.c	4F	4.a	4.f	-kiem	.	.	.	.	.	.	.	.	.	16ffLL	.	4.aa	.
.	.	.	.	.	.	.	.	.	.	.	.	.	.	.	.	.	.	.	.	.	.	.	.	16ee	.	.	.
.	.	.	.	8B-J	.	8eJ	.	8gJ	.	.	.	.	.	.	.	.	.	.	.	.	.	.	.	16dd	.	.	.
.	.	.	.	.	.	.	.	.	.	.	.	.	.	.	.	.	.	.	.	.	.	.	.	(16ccJJ	.	.	.
2E	.	2E	.	4.A	.	4.c	.	4.f	.	.	4E	.	.	.	.	.	.	.	.	.	.	.	.	4.cc)	.	.	.
.	.	.	.	.	.	.	.	.	.	8cL	.	8cL	8cL	twych	.	.	.	.	.	.	.	.	.	.	.	8ccL	.
.	.	.	.	.	.	.	.	.	.	8c	8EL	8f	8d	na-	.	.	.	.	.	.	.	.	.	.	.	8ff	.
.	.	.	.	8r	.	8r	.	8r	.	8cJ	8EJ	8gJ	8eJ	-szyj-	.	.	.	.	.	.	.	.	.	8r	.	8ggJ	.
=51	=51	=51	=51	=51	=51	=51	=51	=51	=51	=51	=51	=51	=51	=51	=51	=51	=51	=51	=51	=51	=51	=51	=51	=51	=51	=51	=51
2D	.	2D	.	8r	.	8r	.	8r	.	4d	4D	4g	4e	-ni-	1r	.	1r	1r	.	1r	.	1r	.	8r	.	4gg	.
.	.	.	.	8FL	.	8AL	.	8cL	.	.	.	.	.	.	.	.	.	.	.	.	.	.	.	16ffLL	.	.	.
.	.	.	.	.	.	.	.	.	.	.	.	.	.	.	.	.	.	.	.	.	.	.	.	16eeJJ	.	.	.
.	.	.	.	8c	.	8f	.	8a	.	4.A	4D	4.a	4.f	-ków	.	.	.	.	.	.	.	.	.	16ffLL	.	4.aa	.
.	.	.	.	.	.	.	.	.	.	.	.	.	.	.	.	.	.	.	.	.	.	.	.	16ee	.	.	.
.	.	.	.	8B-J	.	8eJ	.	8gJ	.	.	.	.	.	.	.	.	.	.	.	.	.	.	.	16dd	.	.	.
.	.	.	.	.	.	.	.	.	.	.	.	.	.	.	.	.	.	.	.	.	.	.	.	16ccJJ	.	.	.
2C	.	2C	.	4.c	.	4.f	.	4.a	.	.	4C	.	.	.	.	.	.	.	.	.	.	.	.	4.a	.	.	.
.	.	.	.	.	.	.	.	.	.	8AL	.	8cL	8cL	o-	.	.	.	.	.	.	.	.	.	.	.	8ccL	.
.	.	.	.	.	.	.	.	.	.	8G	8CL	8g	8e	-cza-	.	.	.	.	.	.	.	.	.	.	.	8gg	.
.	.	.	.	8r	.	8r	.	8r	.	8AJ	8CJ	8aJ	8fJ	-ro-	.	.	.	.	.	.	.	.	.	8r	.	8aaJ	.
=52	=52	=52	=52	=52	=52	=52	=52	=52	=52	=52	=52	=52	=52	=52	=52	=52	=52	=52	=52	=52	=52	=52	=52	=52	=52	=52	=52
4.BB-	.	4.BB-	.	8r	.	8r	.	8r	.	4F	(4.BB-	4a	(8dL	-wa-	1r	.	1r	1r	.	4r	.	1r	.	1r	.	4aa	.
.	.	.	.	8GL	.	8B-L	.	8dL	.	.	.	.	8eJ)	.	.	.	.	.	.	.	.	.	.	.	.	.	.
.	.	.	.	8d	.	8g	.	8b-	.	2d	.	2b-	2f	-łaś	.	.	.	.	.	8fL	.	.	.	.	.	2bb-	.
8AA	.	8AA	.	8cJ	.	8fJ	.	8aJ	.	.	8AA)	.	.	.	.	.	.	.	.	8eJ	.	.	.	.	.	.	.
4GG	.	4GG	.	4c	.	4g	.	4b-	.	.	4GG	.	.	.	.	.	.	.	.	8dL	.	.	.	.	.	.	.
.	.	.	.	.	.	.	.	.	.	.	.	.	.	.	.	.	.	.	.	8c	.	.	.	.	.	.	.
8AAL	.	8AAL	.	8cL	.	4f	.	4a	.	8cL	8AAL	8aL	8fL	ser-	.	.	.	.	.	8A	.	.	.	.	.	8aaL	.
8BB-J	.	8BB-J	.	8dJ	.	.	.	.	.	8dJ	8BB-J	8fJ	8dJ	-ce	.	.	.	.	.	8B-J	.	.	.	.	.	8ffJ	.
=53	=53	=53	=53	=53	=53	=53	=53	=53	=53	=53	=53	=53	=53	=53	=53	=53	=53	=53	=53	=53	=53	=53	=53	=53	=53	=53	=53
2C	.	2C	.	2c	.	2e	.	2g	.	2c	2C	2g	2e	me.	1r	.	1r	2r	.	16cLL	.	1r	.	1r	.	2gg	.
.	.	.	.	.	.	.	.	.	.	.	.	.	.	.	.	.	.	.	.	16G	.	.	.	.	.	.	.
.	.	.	.	.	.	.	.	.	.	.	.	.	.	.	.	.	.	.	.	16E	.	.	.	.	.	.	.
.	.	.	.	.	.	.	.	.	.	.	.	.	.	.	.	.	.	.	.	16CJJ	.	.	.	.	.	.	.
.	.	.	.	.	.	.	.	.	.	.	.	.	.	.	.	.	.	.	.	16GGLL	.	.	.	.	.	.	.
.	.	.	.	.	.	.	.	.	.	.	.	.	.	.	.	.	.	.	.	16C	.	.	.	.	.	.	.
.	.	.	.	.	.	.	.	.	.	.	.	.	.	.	.	.	.	.	.	16E	.	.	.	.	.	.	.
.	.	.	.	.	.	.	.	.	.	.	.	.	.	.	.	.	.	.	.	16GJJ	.	.	.	.	.	.	.
4.r	.	4.r	.	4.r	.	4.r	.	4.r	.	8r	8r	8r	8r	.	.	.	.	8r	.	4C	.	.	.	.	.	2r	.
.	.	.	.	.	.	.	.	.	.	8cL	8CL	8gL	8eL	Je-	.	.	.	8eL 8g	mf	.	.	.	.	.	.	.	.
.	.	.	.	.	.	.	.	.	.	8d	8G	8b-	8g	-steś	.	.	.	8g 8b-	.	4r	.	.	.	.	.	.	.
!LO:TX:a:t=pizz.	!	!LO:TX:a:t=pizz.	!	!LO:TX:a:t=pizz.	!	!LO:TX:a:t=pizz.	!	!LO:TX:a:t=pizz.	!	!	!	!	!	!	!	!	!	!	!	!	!	!	!	!	!	!	!
8A	.	8A	.	8c	.	8f	.	8cc	.	8cJ	8AJ	8ccJ	8fJ	o-	.	.	.	8aJ 8cc	.	.	.	.	.	.	.	.	.
*	*	*	*	*	*	*	*	*	*	*v	*v	*	*	*	*	*	*	*	*	*	*	*	*	*	*	*	*
*	*	*	*	*	*	*	*	*	*	*	*v	*v	*	*	*	*	*	*	*	*	*	*	*	*	*	*
=54	=54	=54	=54	=54	=54	=54	=54	=54	=54	=54	=54	=54	=54	=54	=54	=54	=54	=54	=54	=54	=54	=54	=54	=54	=54
*M3/4	*	*M3/4	*	*M3/4	*	*M3/4	*	*M3/4	*	*M3/4	*M3/4	*	*M3/4	*	*M3/4	*M3/4	*	*M3/4	*	*M3/4	*	*M3/4	*	*M3/4	*
*	*	*	*	*	*	*	*	*	*	*^	*^	*	*	*	*	*	*	*	*	*	*	*	*	*	*
8B-	.	8B-	.	8B-	.	8f	.	8cc	.	4B-	4B-	(8ccL	4f	-gro-	2.r	.	2B-: 2d:	2f: 2b-: 2cc: 2ff:	mf	2.r	.	2.r	.	2.r	.	8r	.
8r	.	8r	.	8r	.	8r	.	8r	.	.	.	8ddJ)	.	.	.	.	.	.	.	.	.	.	.	.	.	8f	.
8BB-	.	8BB-	.	8B-	.	8f	.	8dd	.	4.B-	4.B-	4.dd	4.f	-dem	.	.	.	.	.	.	.	.	.	.	.	8b-L	.
4r	.	4r	.	4r	.	4r	.	4r	.	.	.	.	.	.	.	.	.	.	.	.	.	.	.	.	.	8ccJ	.
.	.	.	.	.	.	.	.	.	.	.	.	.	.	.	.	.	4r	4r	.	.	.	.	.	.	.	12ddL	.
.	.	.	.	.	.	.	.	.	.	.	.	.	.	.	.	.	.	.	.	.	.	.	.	.	.	12cc	.
16B-LL	.	16B-LL	.	8B-	.	8f	.	8dd	.	8B-	8B-	8dd	8f	zam-	.	.	.	.	.	.	.	.	.	.	.	.	.
.	.	.	.	.	.	.	.	.	.	.	.	.	.	.	.	.	.	.	.	.	.	.	.	.	.	12b-J	.
16FJJ	.	16FJJ	.	.	.	.	.	.	.	.	.	.	.	.	.	.	.	.	.	.	.	.	.	.	.	.	.
=55	=55	=55	=55	=55	=55	=55	=55	=55	=55	=55	=55	=55	=55	=55	=55	=55	=55	=55	=55	=55	=55	=55	=55	=55	=55	=55	=55
8A	.	8A	.	8c	.	8g	.	8cc	.	4c	4A	(8ccL	(8gL	-knię-	2.r	.	2A: 2c:	2f: 2g: 2cc: 2ff:	.	2.r	.	2r	.	2.r	.	4cc	.
8r	.	8r	.	8r	.	8r	.	8r	.	.	.	8fJ)	8fJ)	.	.	.	.	.	.	.	.	.	.	.	.	.	.
8AA	.	8AA	.	8c	.	8f	.	8cc	.	4c	4A	4f	4f	-tym,	.	.	.	.	.	.	.	.	.	.	.	4ff	.
4r	.	4r	.	4r	.	4r	.	4r	.	.	.	.	.	.	.	.	.	.	.	.	.	.	.	.	.	.	.
.	.	.	.	.	.	.	.	.	.	8cL	8AL	8gL	8fL	źró-	.	.	4r	4r	.	.	.	8gL	.	.	.	4r	.
16DLL	.	16DLL	.	8A	.	8f	.	8dd	.	8dJ	8DJ	8aJ	8fJ	-dłem	.	.	.	.	.	.	.	8aJ	.	.	.	.	.
16FJJ	.	16FJJ	.	.	.	.	.	.	.	.	.	.	.	.	.	.	.	.	.	.	.	.	.	.	.	.	.
=56	=56	=56	=56	=56	=56	=56	=56	=56	=56	=56	=56	=56	=56	=56	=56	=56	=56	=56	=56	=56	=56	=56	=56	=56	=56	=56	=56
8G	.	8G	.	8d	.	8g	.	8b-	.	4.d	4.G	4.b-	4.g	za-	2.r	.	2G: 2d:	2g: 2b-: 2dd: 2gg:	.	2.r	.	4b-	.	2.r	.	2.r	.
16r	.	16r	.	8r	.	8r	.	8r	.	.	.	.	.	.	.	.	.	.	.	.	.	.	.	.	.	.	.
16DKL	.	16DKL	.	.	.	.	.	.	.	.	.	.	.	.	.	.	.	.	.	.	.	.	.	.	.	.	.
8GJ	.	8GJ	.	8d	.	8g	.	8b-	.	.	.	.	.	.	.	.	.	.	.	.	.	8gL	.	.	.	.	.
4r	.	4r	.	4r	.	4r	.	4r	.	8d	8G	8a	8f	-pie-	.	.	.	.	.	.	.	8aJ	.	.	.	.	.
.	.	.	.	.	.	.	.	.	.	8cL	8GL	8gL	8eL	-czę-	.	.	4r	4r	.	.	.	8b-L	.	.	.	.	.
8G	.	8G	.	8d	.	8f	.	8b-	.	8B-J	8GJ	8fJ	8dJ	-to-	.	.	.	.	.	.	.	8gJ	.	.	.	.	.
*	*	*	*	*	*	*	*	*	*	*v	*v	*	*	*	*	*	*	*	*	*	*	*	*	*	*	*	*
*	*	*	*	*	*	*	*	*	*	*	*v	*v	*	*	*	*	*	*	*	*	*	*	*	*	*	*
=57	=57	=57	=57	=57	=57	=57	=57	=57	=57	=57	=57	=57	=57	=57	=57	=57	=57	=57	=57	=57	=57	=57	=57	=57	=57
*M4/4	*	*M4/4	*	*M4/4	*	*M4/4	*	*M4/4	*	*M4/4	*M4/4	*	*M4/4	*	*M4/4	*M4/4	*	*M4/4	*	*M4/4	*	*M4/4	*	*M4/4	*
*	*	*	*	*	*	*	*	*	*	*^	*^	*	*	*	*	*	*	*	*	*	*	*	*	*	*
8.DL	.	8.DL	.	8d	.	8g	.	8dd	.	4A	4D	(8gL	(8dL	-wa-	1r	.	2D: 2A:	2d: 2a: 2dd: 2ee: 2aa:	.	1r	.	(16aLL	.	1r	.	1r	.
.	.	.	.	.	.	.	.	.	.	.	.	.	.	.	.	.	.	.	.	.	.	16b-	.	.	.	.	.
.	.	.	.	8r	.	8r	.	8r	.	.	.	8aJ)	8eJ)	.	.	.	.	.	.	.	.	16a	.	.	.	.	.
16AJk	.	16AJk	.	.	.	.	.	.	.	.	.	.	.	.	.	.	.	.	.	.	.	16gJJ	.	.	.	.	.
8eL	.	8eL	.	8e	.	8a	.	8dd	.	4.A	4.D	4.a	4.f	-nym.	.	.	.	.	.	.	.	16fLL	.	.	.	.	.
.	.	.	.	.	.	.	.	.	.	.	.	.	.	.	.	.	.	.	.	.	.	16g	.	.	.	.	.
8dJ	.	8dJ	.	4r	.	4r	.	4r	.	.	.	.	.	.	.	.	.	.	.	.	.	16a	.	.	.	.	.
.	.	.	.	.	.	.	.	.	.	.	.	.	.	.	.	.	.	.	.	.	.	16ccJJ	.	.	.	.	.
8r	.	8r	.	.	.	.	.	.	.	.	.	.	.	.	.	.	2r	2r	.	.	.	4dd)	.	.	.	.	.
8cL	.	8cL	.	8cL	.	8fL	.	8aL	.	8cL	8CL	8aL	8fL	Je-	.	.	.	.	.	.	.	.	.	.	.	.	.
8B-	.	8B-	.	8d	.	8g	.	8b-	.	8d	8BB-	8b-	8f	-steś	.	.	.	.	.	.	.	4r	.	.	.	.	.
8AJ	.	8AJ	.	8cJ	.	8aJ	.	8ccJ	.	8cJ	8AAJ	8ccJ	8fJ	o-	.	.	.	.	.	.	.	.	.	.	.	.	.
*	*	*	*	*	*	*	*	*	*	*v	*v	*	*	*	*	*	*	*	*	*	*	*	*	*	*	*	*
*	*	*	*	*	*	*	*	*	*	*	*v	*v	*	*	*	*	*	*	*	*	*	*	*	*	*	*
=58	=58	=58	=58	=58	=58	=58	=58	=58	=58	=58	=58	=58	=58	=58	=58	=58	=58	=58	=58	=58	=58	=58	=58	=58	=58
*M3/4	*	*M3/4	*	*M3/4	*	*M3/4	*	*M3/4	*	*M3/4	*M3/4	*	*M3/4	*	*M3/4	*M3/4	*	*M3/4	*	*M3/4	*	*M3/4	*	*M3/4	*
*	*	*	*	*	*	*	*	*	*	*^	*^	*	*	*	*	*	*	*	*	*	*	*	*	*	*
8B-	.	8B-	.	8B-	.	8f	.	8cc	.	4B-	4BB-	(8ccL	4f	-gro-	2.r	.	2.r	2.r	.	2.r	.	2.r	.	2.r	.	8r	.
8r	.	8r	.	8r	.	8r	.	8r	.	.	.	8ddJ)	.	.	.	.	.	.	.	.	.	.	.	.	.	8f	.
8BB-	.	8BB-	.	8B-	.	8f	.	8dd	.	4.B-	4.BB-	4.dd	4.f	-dem	.	.	.	.	.	.	.	.	.	.	.	8b-L	.
4r	.	4r	.	4r	.	4r	.	4r	.	.	.	.	.	.	.	.	.	.	.	.	.	.	.	.	.	8ccJ	.
.	.	.	.	.	.	.	.	.	.	.	.	.	.	.	.	.	.	.	.	.	.	.	.	.	.	12ddL	.
.	.	.	.	.	.	.	.	.	.	.	.	.	.	.	.	.	.	.	.	.	.	.	.	.	.	12ff	.
16FLL	.	16FLL	.	8B-	.	8f	.	8dd	.	8B-	8BB-	8dd	8f	zam-	.	.	.	.	.	.	.	.	.	.	.	.	.
.	.	.	.	.	.	.	.	.	.	.	.	.	.	.	.	.	.	.	.	.	.	.	.	.	.	12bb-J	.
16BB-JJ	.	16BB-JJ	.	.	.	.	.	.	.	.	.	.	.	.	.	.	.	.	.	.	.	.	.	.	.	.	.
=59	=59	=59	=59	=59	=59	=59	=59	=59	=59	=59	=59	=59	=59	=59	=59	=59	=59	=59	=59	=59	=59	=59	=59	=59	=59	=59	=59
8AA	.	8AA	.	8F	.	8g	.	8cc	.	4c	4AA	(8ccL	(8gL	-knię-	2.r	.	2.r	2.r	.	2.r	.	2.r	.	2.r	.	8ccc'L	.
8r	.	8r	.	8r	.	8r	.	8r	.	.	.	8fJ)	8fJ)	.	.	.	.	.	.	.	.	.	.	.	.	16bb-L	.
.	.	.	.	.	.	.	.	.	.	.	.	.	.	.	.	.	.	.	.	.	.	.	.	.	.	16aaJJ	.
8AA	.	8AA	.	8F	.	8c	.	8f	.	4c	4AA	4f	4f	-tym,	.	.	.	.	.	.	.	.	.	.	.	16ggLL	.
.	.	.	.	.	.	.	.	.	.	.	.	.	.	.	.	.	.	.	.	.	.	.	.	.	.	16ff	.
4r	.	4r	.	4r	.	4r	.	4r	.	.	.	.	.	.	.	.	.	.	.	.	.	.	.	.	.	16gg	.
.	.	.	.	.	.	.	.	.	.	.	.	.	.	.	.	.	.	.	.	.	.	.	.	.	.	16aaJJ	.
.	.	.	.	.	.	.	.	.	.	8cL	8AAL	8gL	8fL	źród-	.	.	.	.	.	.	.	.	.	.	.	4ff	.
!LO:TX:a:t=arco	!	!LO:TX:a:t=arco	!	!LO:TX:a:t=arco	!	!LO:TX:a:t=arco	!	!LO:TX:a:t=arco	!	!	!	!	!	!	!	!	!	!	!	!	!	!	!	!	!	!	!
8AA	.	8AA	.	8c	.	8e	.	8a	.	8cJ	8AAJ	8aJ	8eJ	-łem	.	.	.	.	.	.	.	.	.	.	.	.	.
=60	=60	=60	=60	=60	=60	=60	=60	=60	=60	=60	=60	=60	=60	=60	=60	=60	=60	=60	=60	=60	=60	=60	=60	=60	=60	=60	=60
2GG	.	2GG	.	4.G	.	2d	.	4.b-	.	4.G	4.GG	4.b-	4.d	za-	2.r	.	2.r	2.r	.	2.r	.	2.r	.	2.r	.	2.r	.
.	.	.	.	8F	.	.	.	8a	.	8F	8GG	8a	8d	-pie-	.	.	.	.	.	.	.	.	.	.	.	.	.
8AAL	.	8AAL	.	8EL	.	8cL	.	8gL	.	8EL	8AAL	8gL	8cL	-czę-	.	.	.	.	.	.	.	.	.	.	.	.	.
8BB-J	.	8BB-J	.	8AJ	.	8dJ	.	8fJ	.	8AJ	8BB-J	8fJ	8dJ	-to-	.	.	.	.	.	.	.	.	.	.	.	.	.
=61	=61	=61	=61	=61	=61	=61	=61	=61	=61	=61	=61	=61	=61	=61	=61	=61	=61	=61	=61	=61	=61	=61	=61	=61	=61	=61	=61
2.C	.	2.C	.	2.G	.	4d	.	2e	.	2.G	2.C	(2e	(4d	-wa-	2.r	.	2.r	2.r	.	2.r	.	2.r	.	2.r	.	2.r	.
.	.	.	.	.	.	2c	.	.	.	.	.	.	2c)	.	.	.	.	.	.	.	.	.	.	.	.	.	.
.	.	.	.	.	.	.	.	4f	.	.	.	4f)	.	.	.	.	.	.	.	.	.	.	.	.	.	.	.
*	*	*	*	*	*	*	*	*	*	*v	*v	*	*	*	*	*	*	*	*	*	*	*	*	*	*	*	*
*	*	*	*	*	*	*	*	*	*	*	*v	*v	*	*	*	*	*	*	*	*	*	*	*	*	*	*
=62||	=62||	=62||	=62||	=62||	=62||	=62||	=62||	=62||	=62||	=62||	=62||	=62||	=62||	=62||	=62||	=62||	=62||	=62||	=62||	=62||	=62||	=62||	=62||	=62||	=62||
*M4/4	*	*M4/4	*	*M4/4	*	*M4/4	*	*M4/4	*	*M4/4	*M4/4	*	*M4/4	*	*M4/4	*M4/4	*	*M4/4	*	*M4/4	*	*M4/4	*	*M4/4	*
*	*	*	*	*	*	*	*	*	*	*^	*^	*	*	*	*	*	*	*	*	*	*	*	*	*	*
1r	.	(8FL	f	2c	mp	2f	mp	1r	.	2A	2F	2f	2c	-nym.	1r	.	4F: 4c:	4f: 4a: 4cc: 4ff:	f f	2r	.	2r	.	2r	.	2r	.
.	.	8GJ	.	.	.	.	.	.	.	.	.	.	.	.	.	.	.	.	.	.	.	.	.	.	.	.	.
.	.	4.A)	.	.	.	.	.	.	.	.	.	.	.	.	.	.	2r	16r	.	.	.	.	.	.	.	.	.
.	.	.	.	.	.	.	.	.	.	.	.	.	.	.	.	.	.	16fffLL	.	.	.	.	.	.	.	.	.
.	.	.	.	.	.	.	.	.	.	.	.	.	.	.	.	.	.	16ccc	.	.	.	.	.	.	.	.	.
.	.	.	.	.	.	.	.	.	.	.	.	.	.	.	.	.	.	16aaJJ	.	.	.	.	.	.	.	.	.
*	*	*	*	*	*	*	*	*	*	*v	*v	*	*	*	*	*	*	*	*	*	*	*	*	*	*	*	*
*	*	*	*	*	*	*	*	*	*	*	*v	*v	*	*	*	*	*	*	*	*	*	*	*	*	*	*
.	.	.	.	2f	.	2a	.	.	.	2r	2r	.	.	.	.	16ffLL	.	2r	.	2r	.	2r	.	2r	.
.	.	.	.	.	.	.	.	.	.	.	.	.	.	.	.	16cc	.	.	.	.	.	.	.	.	.
.	.	(8cL	.	.	.	.	.	.	.	.	.	.	.	.	.	16a	.	.	.	.	.	.	.	.	.
.	.	.	.	.	.	.	.	.	.	.	.	.	.	.	.	16fJJ	.	.	.	.	.	.	.	.	.
.	.	8B-	.	.	.	.	.	.	.	.	.	.	.	.	16r	16c	.	.	.	.	.	.	.	.	.
.	.	.	.	.	.	.	.	.	.	.	.	.	.	.	16ALL	8.r	.	.	.	.	.	.	.	.	.
.	.	8AJ)	.	.	.	.	.	.	.	.	.	.	.	.	16F	.	.	.	.	.	.	.	.	.	.
.	.	.	.	.	.	.	.	.	.	.	.	.	.	.	16DJJ	.	.	.	.	.	.	.	.	.	.
=63	=63	=63	=63	=63	=63	=63	=63	=63	=63	=63	=63	=63	=63	=63	=63	=63	=63	=63	=63	=63	=63	=63	=63	=63	=63
1r	.	(4F	.	1c	.	4f	.	1r	.	1r	1r	.	1r	.	4C: 4G: 4c:	4f: 4g: 4cc: 4gg:	.	1r	.	1r	.	1r	.	1r	.
.	.	4.G)	.	.	.	2.e	.	.	.	.	.	.	.	.	4r	4c: 4e: 4g: 4cc: 4gg:	.	.	.	.	.	.	.	.	.
.	.	.	.	.	.	.	.	.	.	.	.	.	.	.	2r	2r	.	.	.	.	.	.	.	.	.
.	.	(8CL	.	.	.	.	.	.	.	.	.	.	.	.	.	.	.	.	.	.	.	.	.	.	.
.	.	8G	.	.	.	.	.	.	.	.	.	.	.	.	.	.	.	.	.	.	.	.	.	.	.
.	.	8AJ)	.	.	.	.	.	.	.	.	.	.	.	.	.	.	.	.	.	.	.	.	.	.	.
=64	=64	=64	=64	=64	=64	=64	=64	=64	=64	=64	=64	=64	=64	=64	=64	=64	=64	=64	=64	=64	=64	=64	=64	=64	=64
1r	.	(4A	.	2d	.	2g	.	1r	.	1r	1r	.	1r	.	4G: 4d:	4g: 4b-: 4dd: 4gg:	.	1r	.	1r	.	1r	.	1r	.
.	.	4.B-)	.	.	.	.	.	.	.	.	.	.	.	.	2r	16r	.	.	.	.	.	.	.	.	.
.	.	.	.	.	.	.	.	.	.	.	.	.	.	.	.	16gggLL	.	.	.	.	.	.	.	.	.
.	.	.	.	.	.	.	.	.	.	.	.	.	.	.	.	16ddd	.	.	.	.	.	.	.	.	.
.	.	.	.	.	.	.	.	.	.	.	.	.	.	.	.	16bb-JJ	.	.	.	.	.	.	.	.	.
.	.	.	.	2g	.	2b-	.	.	.	.	.	.	.	.	.	16ggLL	.	.	.	.	.	.	.	.	.
.	.	.	.	.	.	.	.	.	.	.	.	.	.	.	.	16dd	.	.	.	.	.	.	.	.	.
.	.	(8cL	.	.	.	.	.	.	.	.	.	.	.	.	.	16b-	.	.	.	.	.	.	.	.	.
.	.	.	.	.	.	.	.	.	.	.	.	.	.	.	.	16gJJ	.	.	.	.	.	.	.	.	.
.	.	8F	.	.	.	.	.	.	.	.	.	.	.	.	16r	16d	.	.	.	.	.	.	.	.	.
.	.	.	.	.	.	.	.	.	.	.	.	.	.	.	16B-LL	16r	.	.	.	.	.	.	.	.	.
.	.	8GJ)	.	.	.	.	.	.	.	.	.	.	.	.	16G	8r	.	.	.	.	.	.	.	.	.
.	.	.	.	.	.	.	.	.	.	.	.	.	.	.	16EJJ	.	.	.	.	.	.	.	.	.	.
=65	=65	=65	=65	=65	=65	=65	=65	=65	=65	=65	=65	=65	=65	=65	=65	=65	=65	=65	=65	=65	=65	=65	=65	=65	=65
1r	.	(4G	.	1d	.	4g	.	1r	.	1r	1r	.	1r	.	4D: 4A:	4d: 4g: 4a: 4dd: 4aa:	.	1r	.	1r	.	1r	.	1r	.
.	.	4.A)	.	.	.	2.f	.	.	.	.	.	.	.	.	2r	4d: 4f: 4a: 4dd: 4aa:	.	.	.	.	.	.	.	.	.
.	.	.	.	.	.	.	.	.	.	.	.	.	.	.	.	2r	.	.	.	.	.	.	.	.	.
.	.	(8AL	.	.	.	.	.	.	.	.	.	.	.	.	.	.	.	.	.	.	.	.	.	.	.
.	.	8B-	.	.	.	.	.	.	.	.	.	.	.	.	8r	.	.	.	.	.	.	.	.	.	.
.	.	8cJ)	.	.	.	.	.	.	.	.	.	.	.	.	8AA	.	.	.	.	.	.	.	.	.	.
=66	=66	=66	=66	=66	=66	=66	=66	=66	=66	=66	=66	=66	=66	=66	=66	=66	=66	=66	=66	=66	=66	=66	=66	=66	=66
*M3/4	*	*M3/4	*	*M3/4	*	*M3/4	*	*M3/4	*	*M3/4	*M3/4	*	*M3/4	*	*M3/4	*M3/4	*	*M3/4	*	*M3/4	*	*M3/4	*	*M3/4	*
*	*	*	*	*	*	*	*	*	*	*	*	*	*	*	*^	*	*	*	*	*	*	*	*	*	*
2.r	.	(4d	.	8f'	.	8b-'	.	2.r	.	2.r	2.r	.	2.r	.	2BB-	8r	2r	.	2.r	.	2.r	.	2.r	.	2.r	.
.	.	.	.	8r	.	8r	.	.	.	.	.	.	.	.	.	8FL	.	.	.	.	.	.	.	.	.	.
.	.	4.F)	.	8c'	.	8b-'	.	.	.	.	.	.	.	.	.	8B-	.	.	.	.	.	.	.	.	.	.
.	.	.	.	4r	.	4r	.	.	.	.	.	.	.	.	.	8dJ	.	.	.	.	.	.	.	.	.	.
.	.	.	.	.	.	.	.	.	.	.	.	.	.	.	4r	4r	8fL	.	.	.	.	.	.	.	.	.
.	.	(16ALL	.	8f'	.	8b-'	.	.	.	.	.	.	.	.	.	.	8b-J	.	.	.	.	.	.	.	.	.
.	.	16B-JJ	.	.	.	.	.	.	.	.	.	.	.	.	.	.	.	.	.	.	.	.	.	.	.	.
=67	=67	=67	=67	=67	=67	=67	=67	=67	=67	=67	=67	=67	=67	=67	=67	=67	=67	=67	=67	=67	=67	=67	=67	=67	=67	=67
2.r	.	4c	.	8f'	.	8a'	.	2.r	.	2.r	2.r	.	2.r	.	2AA	8r	4.r	.	2.r	.	2.r	.	2.r	.	2.r	.
.	.	.	.	8r	.	8r	.	.	.	.	.	.	.	.	.	8FL	.	.	.	.	.	.	.	.	.	.
.	.	4F)	.	8B-'	.	8a'	.	.	.	.	.	.	.	.	.	8cJ	.	.	.	.	.	.	.	.	.	.
.	.	.	.	4r	.	4r	.	.	.	.	.	.	.	.	.	8r	8f	.	.	.	.	.	.	.	.	.
.	.	(8GL	.	.	.	.	.	.	.	.	.	.	.	.	4r	4r	8aL	.	.	.	.	.	.	.	.	.
.	.	8AJ)	.	8f'	.	8a'	.	.	.	.	.	.	.	.	.	.	8ccJ	.	.	.	.	.	.	.	.	.
=68	=68	=68	=68	=68	=68	=68	=68	=68	=68	=68	=68	=68	=68	=68	=68	=68	=68	=68	=68	=68	=68	=68	=68	=68	=68	=68
2.r	.	(4.B-	.	2.d	.	2.g	.	2.r	.	2.r	2.r	.	2.r	.	2GG	8r	2r	.	2.r	.	2.r	.	2.r	.	2.r	.
.	.	.	.	.	.	.	.	.	.	.	.	.	.	.	.	8D	.	.	.	.	.	.	.	.	.	.
.	.	.	.	.	.	.	.	.	.	.	.	.	.	.	.	8GL	.	.	.	.	.	.	.	.	.	.
.	.	8A	.	.	.	.	.	.	.	.	.	.	.	.	.	8B-J	.	.	.	.	.	.	.	.	.	.
.	.	8GL	.	.	.	.	.	.	.	.	.	.	.	.	4r	4r	8dL	.	.	.	.	.	.	.	.	.
.	.	8FJ)	.	.	.	.	.	.	.	.	.	.	.	.	.	.	8gJ	.	.	.	.	.	.	.	.	.
*	*	*	*	*	*	*	*	*	*	*	*	*	*	*	*v	*v	*	*	*	*	*	*	*	*	*	*
=69	=69	=69	=69	=69	=69	=69	=69	=69	=69	=69	=69	=69	=69	=69	=69	=69	=69	=69	=69	=69	=69	=69	=69	=69	=69
*M4/4	*	*M4/4	*	*M4/4	*	*M4/4	*	*M4/4	*	*M4/4	*M4/4	*	*M4/4	*	*M4/4	*M4/4	*	*M4/4	*	*M4/4	*	*M4/4	*	*M4/4	*
2.r	.	(2D	.	8FL	<	8r	.	16B-LL	mp	1r	1r	.	1r	.	4BB-: 4F: 4B-:	8d:L 8f: 8b-:	.	1r	.	1r	.	2r	.	2r	.
.	.	.	.	.	.	.	.	16c	<	.	.	.	.	.	.	.	.	.	.	.	.	.	.	.	.
.	.	.	.	8GJ	.	16B-LL	.	16d	.	.	.	.	.	.	.	16ffL	.	.	.	.	.	.	.	.	.
.	.	.	.	.	.	16cJJ	<	16eJJ	.	.	.	.	.	.	.	16eeJJ	.	.	.	.	.	.	.	.	.
.	.	.	.	16B-LL	.	16dLL	.	16fLL	.	.	.	.	.	.	4r	16ddLL	.	.	.	.	.	.	.	.	.
.	.	.	.	16A	.	16e	.	16g	.	.	.	.	.	.	.	16cc	.	.	.	.	.	.	.	.	.
.	.	.	.	16G	.	16f	.	16a	.	.	.	.	.	.	.	16b-	.	.	.	.	.	.	.	.	.
.	.	.	.	16FJJ	.	16dJJ	.	16fJJ	.	.	.	.	.	.	.	16aJJ	.	.	.	.	.	.	.	.	.
.	.	2C)	.	4E	.	4c	.	4g	.	.	.	.	.	.	4C: 4G: 4c:	4e: 4g: 4cc:	.	.	.	.	.	8r	.	8r	.
.	.	.	.	.	.	.	.	.	.	.	.	.	.	.	.	.	.	.	.	.	.	8gL	f	8ccL	f
16r	.	.	.	4G	[[	4e	[[	4cc	[[	.	.	.	.	.	4r	4r	.	.	.	.	.	8a	.	8ff	.
!LO:TX:a:t=pizz.	!	!	!	!	!	!	!	!	!	!	!	!	!	!	!	!	!	!	!	!	!	!	!	!	!
16CLL	f	.	.	.	.	.	.	.	.	.	.	.	.	.	.	.	.	.	.	.	.	.	.	.	.
16E	.	.	.	.	.	.	.	.	.	.	.	.	.	.	.	.	.	.	.	.	.	[8b-J	.	8ggJ	.
16GJJ	.	.	.	.	.	.	.	.	.	.	.	.	.	.	.	.	.	.	.	.	.	.	.	.	.
=70	=70	=70	=70	=70	=70	=70	=70	=70	=70	=70	=70	=70	=70	=70	=70	=70	=70	=70	=70	=70	=70	=70	=70	=70	=70
4F	.	1F	f	(2A	f	(2f	f	(2cc	f	1r	1r	.	1r	.	2.r	1r	.	1r	.	1r	.	4b-]	.	4gg	.
8r	.	.	.	.	.	.	.	.	.	.	.	.	.	.	.	.	.	.	.	.	.	4.cc	.	4.aa	.
8C	.	.	.	.	.	.	.	.	.	.	.	.	.	.	.	.	.	.	.	.	.	.	.	.	.
4F	.	.	.	8AL)	.	8fL)	.	8ccL)	.	.	.	.	.	.	.	.	.	.	.	.	.	.	.	.	.
.	.	.	.	8c	.	8f	.	8a	.	.	.	.	.	.	.	.	.	.	.	.	.	8aL	.	8cccL	.
8r	.	.	.	8B-	.	8g	.	8b-	.	.	.	.	.	.	4c	.	.	.	.	.	.	8b-	.	8bb-	.
16FFLL	.	.	.	8AJ	.	8aJ	.	8ccJ	.	.	.	.	.	.	.	.	.	.	.	.	.	8ccJ	.	8aaJ	.
16AAJJ	.	.	.	.	.	.	.	.	.	.	.	.	.	.	.	.	.	.	.	.	.	.	.	.	.
=71	=71	=71	=71	=71	=71	=71	=71	=71	=71	=71	=71	=71	=71	=71	=71	=71	=71	=71	=71	=71	=71	=71	=71	=71	=71
4C	.	4C	.	4c	.	4f	.	(2cc	.	1r	1r	.	1r	.	2C	2r	.	1r	.	1r	.	4a	.	4ff	.
8.r	.	2.c	.	(4e	.	(4g	.	.	.	.	.	.	.	.	.	.	.	.	.	.	.	4.g	.	4.gg	.
16c	.	.	.	.	.	.	.	.	.	.	.	.	.	.	.	.	.	.	.	.	.	.	.	.	.
8dL	.	.	.	8eL)	.	8gL)	.	8ccL)	.	.	.	.	.	.	2r	4ccc	.	.	.	.	.	.	.	.	.
8cJ	.	.	.	8g	.	8g	.	8ee	.	.	.	.	.	.	.	.	.	.	.	.	.	8gL	.	8ccL	.
8r	.	.	.	8f	.	8b-	.	8dd	.	.	.	.	.	.	.	4r	.	.	.	.	.	8b-	.	8gg	.
16B-LL	.	.	.	8eJ	.	8aJ	.	8ccJ	.	.	.	.	.	.	.	.	.	.	.	.	.	[8ccJ	.	8aaJ	.
16AJJ	.	.	.	.	.	.	.	.	.	.	.	.	.	.	.	.	.	.	.	.	.	.	.	.	.
=72	=72	=72	=72	=72	=72	=72	=72	=72	=72	=72	=72	=72	=72	=72	=72	=72	=72	=72	=72	=72	=72	=72	=72	=72	=72
4G	.	1G	.	(2d	.	(2b-	.	(2dd	.	1r	1r	.	1r	.	2.r	1r	.	1r	.	1r	.	4cc]	.	4aa	.
8r	.	.	.	.	.	.	.	.	.	.	.	.	.	.	.	.	.	.	.	.	.	4.dd	.	4.bb-	.
8D	.	.	.	.	.	.	.	.	.	.	.	.	.	.	.	.	.	.	.	.	.	.	.	.	.
4G	.	.	.	4d)	.	8b-L)	.	8ddL)	.	.	.	.	.	.	.	.	.	.	.	.	.	.	.	.	.
.	.	.	.	.	.	8g	.	8cc	.	.	.	.	.	.	.	.	.	.	.	.	.	8ccL	.	8cccL	.
16r	.	.	.	8cL	.	8f	.	8a	.	.	.	.	.	.	4d	.	.	.	.	.	.	8a	.	8ff	.
16GLL	.	.	.	.	.	.	.	.	.	.	.	.	.	.	.	.	.	.	.	.	.	.	.	.	.
16F	.	.	.	8dJ	.	8gJ	.	8ccJ	.	.	.	.	.	.	.	.	.	.	.	.	.	[8eJ	.	8ggJ	.
16CJJ	.	.	.	.	.	.	.	.	.	.	.	.	.	.	.	.	.	.	.	.	.	.	.	.	.
=73	=73	=73	=73	=73	=73	=73	=73	=73	=73	=73	=73	=73	=73	=73	=73	=73	=73	=73	=73	=73	=73	=73	=73	=73	=73
4D	.	4D	.	4e	.	4g	.	(2dd	.	1r	1r	.	1r	.	2D	2r	.	1r	.	1r	.	4e]	.	4gg	.
8.r	.	4.d	.	(4f	.	(4a	.	.	.	.	.	.	.	.	.	.	.	.	.	.	.	4.f	.	4.aa	.
16d	.	.	.	.	.	.	.	.	.	.	.	.	.	.	.	.	.	.	.	.	.	.	.	.	.
8eL	.	.	.	8fL)	.	8aL)	.	8ddL)	.	.	.	.	.	.	2r	4ddd	.	.	.	.	.	.	.	.	.
8dJ	.	8r	.	8d	>	8f	>	8a	>	.	.	.	.	.	.	.	.	.	.	.	.	8fL	.	8aaL	.
8r	.	8B-L	>	8c	.	8e	.	8g	.	.	.	.	.	.	.	4r	.	.	.	.	.	8g	.	8bb-	.
16cLL	.	8AJ	]]	8dJ	]]	8fJ	]]	8aJ	]]	.	.	.	.	.	.	.	.	.	.	.	.	8aJ	.	8cccJ	.
16AJJ	.	.	.	.	.	.	.	.	.	.	.	.	.	.	.	.	.	.	.	.	.	.	.	.	.
=74	=74	=74	=74	=74	=74	=74	=74	=74	=74	=74	=74	=74	=74	=74	=74	=74	=74	=74	=74	=74	=74	=74	=74	=74	=74
*M3/4	*	*M3/4	*	*M3/4	*	*M3/4	*	*M3/4	*	*M3/4	*M3/4	*	*M3/4	*	*M3/4	*M3/4	*	*M3/4	*	*M3/4	*	*M3/4	*	*M3/4	*
8B-	mf	8B-'L	mf	8d'L	mf	8f'L	mf	8b-'L	mf	2.r	2.r	.	2.r	.	2.r	2.r	.	2.r	.	2.r	.	4b-	mf	4ddd	mf
8r	.	8B-'J	.	8d'J	.	8f'J	.	8b-'J	.	.	.	.	.	.	.	.	.	.	.	.	.	.	.	.	.
8BB-	.	8B-'L	.	8d'L	.	8f'L	.	8b-'L	.	.	.	.	.	.	.	.	.	.	.	.	.	4d	.	4.ff	.
8.r	.	8B-'J	.	8d'J	.	8f'J	.	8b-'J	.	.	.	.	.	.	.	.	.	.	.	.	.	.	.	.	.
.	.	8r	.	8r	.	8r	.	8r	.	.	.	.	.	.	.	.	.	.	.	.	.	8r	.	.	.
16FLL	.	.	.	.	.	.	.	.	.	.	.	.	.	.	.	.	.	.	.	.	.	.	.	.	.
16D	.	8B-'	.	8d'	.	8f'	.	8b-'	.	.	.	.	.	.	.	.	.	.	.	.	.	8d	.	16aaLL	.
16BB-JJ	.	.	.	.	.	.	.	.	.	.	.	.	.	.	.	.	.	.	.	.	.	.	.	16bb-JJ	.
=75	=75	=75	=75	=75	=75	=75	=75	=75	=75	=75	=75	=75	=75	=75	=75	=75	=75	=75	=75	=75	=75	=75	=75	=75	=75
8AA	.	8A'L	.	8c'L	.	8f'L	.	8cc'L	.	2.r	2.r	.	2.r	.	2.r	2r	.	2.r	.	2.r	.	4c	.	4ccc	.
8r	.	8A'J	.	8c'J	.	8f'J	.	8cc'J	.	.	.	.	.	.	.	.	.	.	.	.	.	.	.	.	.
8A	.	8A'L	.	8c'L	.	8f'L	.	8cc'L	.	.	.	.	.	.	.	.	.	.	.	.	.	4a	.	4ff	.
4r	.	8A'J	.	8c'J	.	8f'J	.	8cc'J	.	.	.	.	.	.	.	.	.	.	.	.	.	.	.	.	.
.	.	8r	.	8r	.	8r	.	8r	.	.	.	.	.	.	.	16r	.	.	.	.	.	8b-L	.	8ggL	.
.	.	.	.	.	.	.	.	.	.	.	.	.	.	.	.	16fLL	.	.	.	.	.	.	.	.	.
8A	.	8A'	.	8c'	.	8f'	.	8cc'	.	.	.	.	.	.	.	16a	.	.	.	.	.	8ccJ	.	8aaJ	.
.	.	.	.	.	.	.	.	.	.	.	.	.	.	.	.	16ccJJ	.	.	.	.	.	.	.	.	.
=76	=76	=76	=76	=76	=76	=76	=76	=76	=76	=76	=76	=76	=76	=76	=76	=76	=76	=76	=76	=76	=76	=76	=76	=76	=76
4G	.	2.G	.	2.d	.	2.g	.	2.b-	.	2.r	2.r	.	2.r	.	4G: 4B-:	8d:L 8g: 8b-: 8dd:	.	2.r	.	2.r	.	4.dd	.	4.bb-	.
.	.	.	.	.	.	.	.	.	.	.	.	.	.	.	.	8ccJ	.	.	.	.	.	.	.	.	.
8r	.	.	.	.	.	.	.	.	.	.	.	.	.	.	4r	8b-L	.	.	.	.	.	.	.	.	.
8DL	.	.	.	.	.	.	.	.	.	.	.	.	.	.	.	8aJ	.	.	.	.	.	8cc	.	8aa	.
8GG	.	.	.	.	.	.	.	.	.	.	.	.	.	.	4r	8b-L	.	.	.	.	.	8b-L	.	8ggL	.
8AAJ	.	.	.	.	.	.	.	.	.	.	.	.	.	.	.	8ccJ	.	.	.	.	.	8aJ	.	8ffJ	.
=77	=77	=77	=77	=77	=77	=77	=77	=77	=77	=77	=77	=77	=77	=77	=77	=77	=77	=77	=77	=77	=77	=77	=77	=77	=77
*M4/4	*	*M4/4	*	*M4/4	*	*M4/4	*	*M4/4	*	*M4/4	*M4/4	*	*M4/4	*	*M4/4	*M4/4	*	*M4/4	*	*M4/4	*	*M4/4	*	*M4/4	*
4BB-	.	2BB-	.	16r	.	8r	.	16B-LL	.	1r	1r	.	1r	.	2BB-: 2F: 2B-:	2f: 2b-: 2dd:	.	1r	.	1r	.	2f	.	2dd	.
.	.	.	.	16FLL	.	.	.	16c	.	.	.	.	.	.	.	.	.	.	.	.	.	.	.	.	.
.	.	.	.	16G	.	16B-LL	.	16d	.	.	.	.	.	.	.	.	.	.	.	.	.	.	.	.	.
.	.	.	.	16AJJ	.	16cJJ	.	16eJJ	.	.	.	.	.	.	.	.	.	.	.	.	.	.	.	.	.
4r	.	.	.	16B-LL	.	16dLL	.	16fLL	.	.	.	.	.	.	.	.	.	.	.	.	.	.	.	.	.
.	.	.	.	16c	.	16e	.	16g	.	.	.	.	.	.	.	.	.	.	.	.	.	.	.	.	.
.	.	.	.	16d	.	16f	.	16a	.	.	.	.	.	.	.	.	.	.	.	.	.	.	.	.	.
.	.	.	.	(16eJJ	.	16gJJ	.	16b-JJ	.	.	.	.	.	.	.	.	.	.	.	.	.	.	.	.	.
4C	.	2C	.	16eLL)	.	16aLL	.	16ccLL	.	.	.	.	.	.	2C: 2G:	2c: 2e: 2g: 2cc:	.	.	.	.	.	4.g	.	4.ee	.
.	.	.	.	16f	.	16b-	.	16dd	.	.	.	.	.	.	.	.	.	.	.	.	.	.	.	.	.
.	.	.	.	16g	.	16cc	.	16ee	.	.	.	.	.	.	.	.	.	.	.	.	.	.	.	.	.
.	.	.	.	16fJJ	.	16ddJJ	.	16ffJJ	.	.	.	.	.	.	.	.	.	.	.	.	.	.	.	.	.
16r	.	.	.	8eL	.	4cc	.	8ggL	.	.	.	.	.	.	.	.	.	.	.	.	.	.	.	.	.
16ELL	.	.	.	.	.	.	.	.	.	.	.	.	.	.	.	.	.	.	.	.	.	.	.	.	.
16C	.	.	.	8dJ	.	.	.	8ffJ	.	.	.	.	.	.	.	.	.	.	.	.	.	8a	.	8ff	.
16GGJJ	.	.	.	.	.	.	.	.	.	.	.	.	.	.	.	.	.	.	.	.	.	.	.	.	.
=78	=78	=78	=78	=78	=78	=78	=78	=78	=78	=78	=78	=78	=78	=78	=78	=78	=78	=78	=78	=78	=78	=78	=78	=78	=78
1FF	.	1F	.	1c	.	1a	.	1ff	.	1r	1r	.	1r	.	8F: 8c:	8f:L 8a: 8cc: 8ff:	.	1r	.	1r	.	1a	.	1ff	.
.	.	.	.	.	.	.	.	.	.	.	.	.	.	.	8r	16cL	.	.	.	.	.	.	.	.	.
.	.	.	.	.	.	.	.	.	.	.	.	.	.	.	.	16fJJ	.	.	.	.	.	.	.	.	.
.	.	.	.	.	.	.	.	.	.	.	.	.	.	.	4r	16gLL	.	.	.	.	.	.	.	.	.
.	.	.	.	.	.	.	.	.	.	.	.	.	.	.	.	16a	.	.	.	.	.	.	.	.	.
.	.	.	.	.	.	.	.	.	.	.	.	.	.	.	.	16cc	.	.	.	.	.	.	.	.	.
.	.	.	.	.	.	.	.	.	.	.	.	.	.	.	.	16ffJJ	.	.	.	.	.	.	.	.	.
.	.	.	.	.	.	.	.	.	.	.	.	.	.	.	2r	8gg	.	.	.	.	.	.	.	.	.
.	.	.	.	.	.	.	.	.	.	.	.	.	.	.	.	4aa	.	.	.	.	.	.	.	.	.
.	.	.	.	.	.	.	.	.	.	.	.	.	.	.	.	8r	.	.	.	.	.	.	.	.	.
==79	==79	==79	==79	==79	==79	==79	==79	==79	==79	==79	==79	==79	==79	==79	==79	==79	==79	==79	==79	==79	==79	==79	==79	==79	==79
*-	*-	*-	*-	*-	*-	*-	*-	*-	*-	*-	*-	*-	*-	*-	*-	*-	*-	*-	*-	*-	*-	*-	*-	*-	*-
!!!system-decoration: [(s1,s2,s3,s4)]{(s5,s6)}(s7)[(s8,s9)][(s10,s11,s12,s13,s14)]
!!!YEM: Copyrights by Tomasz Kozubek. All rights reserved
!!!RDF**kern: Z = caesura